; generated by SuperSlicer 2.3.57 on 2022-03-28 at 19:33:25 UTC

; 

; external perimeters extrusion width = 0.45mm
; perimeters extrusion width = 0.45mm
; infill extrusion width = 0.45mm
; solid infill extrusion width = 0.45mm
; top infill extrusion width = 0.45mm
; first layer extrusion width = 0.42mm

; object:{"name":"bedLevelTest","id":"bedLevelTest.stl id:0 copy 0","object_center":[150.000000,100.000000,0.000000],"boundingbox_center":[150.000000,100.000000,0.100000],"boundingbox_size":[250.000000,150.000000,0.200000]}
; Total objects to print: 1
M486 T1
; plater:{"center":[150.000000,100.000000,0.000000],"boundingbox_center":[150.000000,100.000000,0.100000],"boundingbox_size":[250.000000,150.000000,0.200000]}

M140 S60 ; set bed temperature
;TYPE:Custom
; custom gcode: start_gcode
G29 S1
T1 ;manually get the tool
; custom gcode end: start_gcode
G21 ; set units to millimeters
G90 ; use absolute coordinates
M83 ; use relative distances for extrusion
; custom gcode: start_filament_gcode
; Filament gcode
; custom gcode end: start_filament_gcode
M109 S210 ; set temperature and wait for it to be reached
M190 S60 ; set bed temperature and wait for it to be reached
;LAYER_CHANGE
;Z:0.3
;HEIGHT:0.3
G1 Z0.3 F21000
G1 E-0.8 F6000
M204 P3500
G1 Z0.9 F21000
G1 X20.228 Y20.441
G1 Z0.3
G1 E0.8 F6000
;TYPE:Skirt
;WIDTH:0.42
G1 F900
G1 X19.696 Y21.071 E0.03657
G1 X19.248 Y21.763 E0.03657
G1 X18.892 Y22.5 E0.03629
G1 X18.628 Y23.281 E0.03657
G1 X18.463 Y24.089 E0.03657
G1 X18.4 Y24.911 E0.03657
G1 X18.4 Y175.041 E6.65898
G1 X18.469 Y175.952 E0.04051
G1 X18.661 Y176.838 E0.04023
G1 X18.975 Y177.695 E0.04051
G1 X19.405 Y178.501 E0.04051
G1 X19.889 Y179.177 E0.03685
G1 X20.45 Y179.781 E0.03657
G1 X21.087 Y180.315 E0.03685
G1 X21.78 Y180.761 E0.03657
G1 X22.523 Y181.118 E0.03657
G1 X23.312 Y181.381 E0.03685
G1 X24.127 Y181.542 E0.03685
G1 X24.949 Y181.6 E0.03657
G1 X275.028 Y181.6 E11.09221
G1 X275.939 Y181.533 E0.04051
G1 X276.832 Y181.341 E0.04051
G1 X277.69 Y181.027 E0.04051
G1 X278.501 Y180.595 E0.04079
G1 X279.162 Y180.123 E0.03601
G1 X279.764 Y179.569 E0.03629
G1 X280.292 Y178.944 E0.03629
G1 X280.74 Y178.259 E0.03629
G1 X281.099 Y177.524 E0.03629
G1 X281.364 Y176.75 E0.03629
G1 X281.532 Y175.949 E0.03629
G1 X281.599 Y175.133 E0.03629
G1 X281.599 Y24.857 E6.66546
G1 X281.448 Y23.593 E0.0565
G1 X281.056 Y22.374 E0.05678
G1 X280.438 Y21.26 E0.0565
G1 X279.619 Y20.285 E0.0565
G1 X278.627 Y19.486 E0.0565
G1 X277.5 Y18.892 E0.0565
G1 X276.28 Y18.525 E0.0565
G1 X275.006 Y18.4 E0.05678
G1 X24.972 Y18.4 E11.09024
G1 X24.061 Y18.467 E0.04051
G1 X23.168 Y18.659 E0.04051
G1 X22.31 Y18.973 E0.04051
G1 X21.499 Y19.405 E0.04079
G1 X20.828 Y19.885 E0.03657
G1 X20.272 Y20.4 E0.03363
G1 X20.513 Y20.661 F21000
G1 F900
G1 X20.483 Y20.688 E0.00177
G1 X19.979 Y21.287 E0.03475
G1 X19.556 Y21.94 E0.03448
G1 X19.218 Y22.64 E0.03448
G1 X18.97 Y23.377 E0.03448
G1 X18.814 Y24.145 E0.03475
G1 X18.756 Y24.92 E0.03448
G1 X18.755 Y175.042 E6.65866
G1 X18.821 Y175.903 E0.03831
G1 X19.003 Y176.741 E0.03803
G1 X19.298 Y177.546 E0.03803
G1 X19.704 Y178.309 E0.03831
G1 X20.16 Y178.946 E0.03475
G1 X20.692 Y179.521 E0.03475
G1 X21.292 Y180.025 E0.03475
G1 X21.951 Y180.45 E0.03475
G1 X22.657 Y180.789 E0.03475
G1 X23.401 Y181.036 E0.03475
G1 X24.169 Y181.189 E0.03475
G1 X24.951 Y181.244 E0.03475
G1 X275.024 Y181.245 E11.09195
G1 X275.885 Y181.182 E0.03831
G1 X276.73 Y181 E0.03831
G1 X277.546 Y180.702 E0.03858
G1 X278.309 Y180.296 E0.03831
G1 X278.941 Y179.844 E0.03448
G1 X279.512 Y179.317 E0.03448
G1 X280.014 Y178.723 E0.03448
G1 X280.434 Y178.076 E0.03421
G1 X280.772 Y177.383 E0.03421
G1 X281.024 Y176.647 E0.03448
G1 X281.181 Y175.886 E0.03448
G1 X281.244 Y175.117 E0.03421
G1 X281.243 Y24.871 E6.66414
G1 X281.102 Y23.671 E0.05359
G1 X280.732 Y22.521 E0.05359
G1 X280.147 Y21.464 E0.05359
G1 X279.37 Y20.539 E0.05359
G1 X278.429 Y19.781 E0.05359
G1 X277.366 Y19.221 E0.05331
G1 X276.209 Y18.873 E0.05359
G1 X275.006 Y18.755 E0.05359
G1 X24.976 Y18.755 E11.09003
G1 X24.115 Y18.818 E0.03831
G1 X23.27 Y19 E0.03831
G1 X22.454 Y19.298 E0.03858
G1 X21.691 Y19.704 E0.03831
G1 X21.059 Y20.156 E0.03448
G1 X20.557 Y20.62 E0.03032
G1 X20.797 Y20.881 F21000
G1 F900
G1 X20.746 Y20.928 E0.00309
G1 X20.271 Y21.491 E0.03269
G1 X19.869 Y22.109 E0.03269
G1 X19.548 Y22.773 E0.03269
G1 X19.313 Y23.471 E0.03269
G1 X19.166 Y24.193 E0.03269
G1 X19.111 Y24.928 E0.03269
G1 X19.111 Y175.036 E6.658
G1 X19.171 Y175.842 E0.03587
G1 X19.343 Y176.639 E0.03614
G1 X19.624 Y177.403 E0.03614
G1 X20.004 Y178.117 E0.03587
G1 X20.432 Y178.717 E0.03269
G1 X20.937 Y179.263 E0.03295
G1 X21.501 Y179.737 E0.03269
G1 X22.125 Y180.14 E0.03295
G1 X22.795 Y180.461 E0.03295
G1 X23.494 Y180.693 E0.03269
G1 X24.223 Y180.838 E0.03295
G1 X24.958 Y180.889 E0.03269
G1 X275.024 Y180.889 E11.09162
G1 X275.836 Y180.829 E0.03614
G1 X276.633 Y180.658 E0.03614
G1 X277.398 Y180.379 E0.03614
G1 X278.117 Y179.996 E0.03614
G1 X278.712 Y179.572 E0.03242
G1 X279.254 Y179.072 E0.03269
G1 X279.726 Y178.514 E0.03242
G1 X280.125 Y177.901 E0.03242
G1 X280.445 Y177.244 E0.03242
G1 X280.681 Y176.552 E0.03242
G1 X280.829 Y175.837 E0.03242
G1 X280.888 Y175.108 E0.03242
G1 X280.888 Y24.886 E6.66305
G1 X280.756 Y23.757 E0.05045
G1 X280.41 Y22.673 E0.05045
G1 X279.862 Y21.677 E0.05045
G1 X279.128 Y20.8 E0.05071
G1 X278.239 Y20.082 E0.05071
G1 X277.233 Y19.551 E0.05045
G1 X276.144 Y19.223 E0.05045
G1 X275.006 Y19.111 E0.05071
G1 X24.976 Y19.111 E11.09002
G1 X24.164 Y19.171 E0.03614
G1 X23.367 Y19.342 E0.03614
G1 X22.602 Y19.621 E0.03614
G1 X21.883 Y20.004 E0.03614
G1 X21.288 Y20.428 E0.03242
G1 X20.841 Y20.84 E0.02694
G1 X21.082 Y21.101 F21000
G1 F900
G1 X21.003 Y21.174 E0.00476
G1 X20.557 Y21.702 E0.03065
G1 X20.18 Y22.281 E0.03065
G1 X19.877 Y22.909 E0.03091
G1 X19.656 Y23.564 E0.03065
G1 X19.519 Y24.241 E0.03065
G1 X19.467 Y24.936 E0.03091
G1 X19.467 Y175.033 E6.65751
G1 X19.523 Y175.791 E0.03374
G1 X19.684 Y176.535 E0.03374
G1 X19.944 Y177.25 E0.03374
G1 X20.301 Y177.922 E0.03374
G1 X20.705 Y178.489 E0.03091
G1 X21.178 Y179.001 E0.03091
G1 X21.711 Y179.45 E0.03091
G1 X22.297 Y179.828 E0.03091
G1 X22.925 Y180.13 E0.03091
G1 X23.586 Y180.35 E0.03091
G1 X24.27 Y180.485 E0.03091
G1 X24.959 Y180.533 E0.03065
G1 X275.021 Y180.533 E11.09145
G1 X275.786 Y180.477 E0.034
G1 X276.529 Y180.318 E0.03374
G1 X277.244 Y180.058 E0.03374
G1 X277.922 Y179.699 E0.034
G1 X278.485 Y179.298 E0.03065
G1 X278.989 Y178.835 E0.0304
G1 X279.436 Y178.307 E0.03065
G1 X279.814 Y177.729 E0.03065
G1 X280.114 Y177.113 E0.0304
G1 X280.338 Y176.459 E0.03065
G1 X280.478 Y175.782 E0.03065
G1 X280.533 Y175.093 E0.03065
G1 X280.532 Y24.897 E6.66189
G1 X280.409 Y23.831 E0.04761
G1 X280.083 Y22.814 E0.04736
G1 X279.569 Y21.879 E0.04736
G1 X278.88 Y21.055 E0.04761
G1 X278.046 Y20.38 E0.04761
G1 X277.102 Y19.881 E0.04736
G1 X276.074 Y19.572 E0.04761
G1 X275.006 Y19.467 E0.04761
G1 X24.979 Y19.467 E11.0899
G1 X24.214 Y19.523 E0.034
G1 X23.471 Y19.682 E0.03374
G1 X22.756 Y19.942 E0.03374
G1 X22.078 Y20.301 E0.034
G1 X21.511 Y20.705 E0.03091
G1 X21.126 Y21.06 E0.02323
G1 X21.354 Y21.342 F21000
G1 F900
G1 X21.262 Y21.417 E0.00524
G1 X20.49 Y22.456 E0.05745
G1 X20 Y23.655 E0.05745
G1 X19.822 Y24.944 E0.0577
G1 X19.822 Y175.027 E6.65691
G1 X19.875 Y175.738 E0.03164
G1 X20.024 Y176.43 E0.03139
G1 X20.267 Y177.101 E0.03164
G1 X20.601 Y177.731 E0.03164
G1 X21.421 Y178.741 E0.0577
G1 X22.471 Y179.518 E0.05794
G1 X23.677 Y180.006 E0.0577
G1 X24.966 Y180.178 E0.0577
G1 X275.016 Y180.178 E11.09089
G1 X275.727 Y180.126 E0.03164
G1 X276.43 Y179.976 E0.03189
G1 X277.101 Y179.733 E0.03164
G1 X277.731 Y179.399 E0.03164
G1 X278.738 Y178.583 E0.05745
G1 X279.507 Y177.549 E0.0572
G1 X279.997 Y176.356 E0.0572
G1 X280.177 Y175.079 E0.0572
G1 X280.177 Y24.911 E6.66065
G1 X280.062 Y23.913 E0.04456
G1 X279.759 Y22.961 E0.04431
G1 X279.276 Y22.08 E0.04456
G1 X278.632 Y21.309 E0.04456
G1 X277.851 Y20.678 E0.04456
G1 X276.967 Y20.211 E0.04431
G1 X276.005 Y19.921 E0.04456
G1 X275.006 Y19.822 E0.04456
G1 X24.984 Y19.822 E11.08965
G1 X24.273 Y19.874 E0.03164
G1 X23.57 Y20.024 E0.03189
G1 X22.899 Y20.267 E0.03164
G1 X22.269 Y20.601 E0.03164
G1 X21.401 Y21.304 E0.04955
; INIT printing object bedLevelTest.stl id:0 copy 0
;WIPE_START
G1 F16800
G1 X21.262 Y21.417 E-0.06043
G1 X20.49 Y22.456 E-0.43944
G1 X20.2 Y23.166 E-0.26013
;WIPE_END
G1 E-0.04 F6000
G1 Z0.9 F21000
; printing object bedLevelTest.stl id:0 copy 0
M486 S0
G1 X161.079 Y111.079
G1 Z0.3
G1 E0.8 F6000
;TYPE:Internal perimeter
G1 F900
G1 X150.279 Y111.079 E0.47903
G1 X150.279 Y151.921 E1.81156
G1 X161.079 Y151.921 E0.47903
G1 X161.079 Y162.721 E0.47903
G1 X251.921 Y162.721 E4.0293
G1 X251.921 Y151.921 E0.47903
G1 X262.721 Y151.921 E0.47903
G1 X262.721 Y111.079 E1.81156
G1 X251.921 Y111.079 E0.47903
G1 X251.921 Y100.279 E0.47903
G1 X161.079 Y100.279 E4.0293
G1 X161.079 Y111.019 E0.47637
G1 X161.434 Y111.434 F21000
G1 F900
G1 X150.634 Y111.434 E0.47903
G1 X150.634 Y151.566 E1.78001
G1 X161.434 Y151.566 E0.47903
G1 X161.434 Y162.366 E0.47903
G1 X251.566 Y162.366 E3.99775
G1 X251.566 Y151.566 E0.47903
G1 X262.366 Y151.566 E0.47903
G1 X262.366 Y111.434 E1.78001
G1 X251.566 Y111.434 E0.47903
G1 X251.566 Y100.634 E0.47903
G1 X161.434 Y100.634 E3.99775
G1 X161.434 Y111.374 E0.47637
G1 X161.79 Y111.79 F21000
;TYPE:External perimeter
G1 F900
G1 X150.99 Y111.79 E0.47903
G1 X150.99 Y151.21 E1.74847
G1 X161.79 Y151.21 E0.47903
G1 X161.79 Y162.01 E0.47903
G1 X251.21 Y162.01 E3.96621
G1 X251.21 Y151.21 E0.47903
G1 X262.01 Y151.21 E0.47903
G1 X262.01 Y111.79 E1.74847
G1 X251.21 Y111.79 E0.47903
G1 X251.21 Y100.99 E0.47903
G1 X161.79 Y100.99 E3.96621
G1 X161.79 Y111.73 E0.47637
;WIPE_START
G1 X161.444 Y111.59 F21000
;WIPE_END
G1 X161.079 Y88.921
;TYPE:Internal perimeter
G1 F900
G1 X161.079 Y99.721 E0.47903
G1 X251.921 Y99.721 E4.0293
G1 X251.921 Y88.921 E0.47903
G1 X262.721 Y88.921 E0.47903
G1 X262.721 Y48.079 E1.81156
G1 X251.921 Y48.079 E0.47903
G1 X251.921 Y37.279 E0.47903
G1 X161.079 Y37.279 E4.0293
G1 X161.079 Y48.079 E0.47903
G1 X150.279 Y48.079 E0.47903
G1 X150.279 Y88.921 E1.81156
G1 X161.019 Y88.921 E0.47637
G1 X161.434 Y88.566 F21000
G1 F900
G1 X161.434 Y99.366 E0.47903
G1 X251.566 Y99.366 E3.99775
G1 X251.566 Y88.566 E0.47903
G1 X262.366 Y88.566 E0.47903
G1 X262.366 Y48.434 E1.78001
G1 X251.566 Y48.434 E0.47903
G1 X251.566 Y37.634 E0.47903
G1 X161.434 Y37.634 E3.99775
G1 X161.434 Y48.434 E0.47903
G1 X150.634 Y48.434 E0.47903
G1 X150.634 Y88.566 E1.78001
G1 X161.374 Y88.566 E0.47637
G1 X161.79 Y88.21 F21000
;TYPE:External perimeter
G1 F900
G1 X161.79 Y99.01 E0.47903
G1 X251.21 Y99.01 E3.96621
G1 X251.21 Y88.21 E0.47903
G1 X262.01 Y88.21 E0.47903
G1 X262.01 Y48.79 E1.74847
G1 X251.21 Y48.79 E0.47903
G1 X251.21 Y37.99 E0.47903
G1 X161.79 Y37.99 E3.96621
G1 X161.79 Y48.79 E0.47903
G1 X150.99 Y48.79 E0.47903
G1 X150.99 Y88.21 E1.74847
G1 X161.73 Y88.21 E0.47637
;WIPE_START
G1 X161.59 Y88.556 F21000
;WIPE_END
G1 X138.921 Y88.921
;TYPE:Internal perimeter
G1 F900
G1 X149.721 Y88.921 E0.47903
G1 X149.721 Y48.079 E1.81156
G1 X138.921 Y48.079 E0.47903
G1 X138.921 Y37.279 E0.47903
G1 X48.079 Y37.279 E4.0293
G1 X48.079 Y48.079 E0.47903
G1 X37.279 Y48.079 E0.47903
G1 X37.279 Y88.921 E1.81156
G1 X48.079 Y88.921 E0.47903
G1 X48.079 Y99.721 E0.47903
G1 X138.921 Y99.721 E4.0293
G1 X138.921 Y88.981 E0.47637
G1 X138.566 Y88.566 F21000
G1 F900
G1 X149.366 Y88.566 E0.47903
G1 X149.366 Y48.434 E1.78001
G1 X138.566 Y48.434 E0.47903
G1 X138.566 Y37.634 E0.47903
G1 X48.434 Y37.634 E3.99775
G1 X48.434 Y48.434 E0.47903
G1 X37.634 Y48.434 E0.47903
G1 X37.634 Y88.566 E1.78001
G1 X48.434 Y88.566 E0.47903
G1 X48.434 Y99.366 E0.47903
G1 X138.566 Y99.366 E3.99775
G1 X138.566 Y88.626 E0.47637
G1 X138.21 Y88.21 F21000
;TYPE:External perimeter
G1 F900
G1 X149.01 Y88.21 E0.47903
G1 X149.01 Y48.79 E1.74847
G1 X138.21 Y48.79 E0.47903
G1 X138.21 Y37.99 E0.47903
G1 X48.79 Y37.99 E3.96621
G1 X48.79 Y48.79 E0.47903
G1 X37.99 Y48.79 E0.47903
G1 X37.99 Y88.21 E1.74847
G1 X48.79 Y88.21 E0.47903
G1 X48.79 Y99.01 E0.47903
G1 X138.21 Y99.01 E3.96621
G1 X138.21 Y88.27 E0.47637
;WIPE_START
G1 X138.556 Y88.41 F21000
;WIPE_END
G1 X138.921 Y111.079
;TYPE:Internal perimeter
G1 F900
G1 X138.921 Y100.279 E0.47903
G1 X48.079 Y100.279 E4.0293
G1 X48.079 Y111.079 E0.47903
G1 X37.279 Y111.079 E0.47903
G1 X37.279 Y151.921 E1.81156
G1 X48.079 Y151.921 E0.47903
G1 X48.079 Y162.721 E0.47903
G1 X138.921 Y162.721 E4.0293
G1 X138.921 Y151.921 E0.47903
G1 X149.721 Y151.921 E0.47903
G1 X149.721 Y111.079 E1.81156
G1 X138.981 Y111.079 E0.47637
G1 X138.566 Y111.434 F21000
G1 F900
G1 X138.566 Y100.634 E0.47903
G1 X48.434 Y100.634 E3.99775
G1 X48.434 Y111.434 E0.47903
G1 X37.634 Y111.434 E0.47903
G1 X37.634 Y151.566 E1.78001
G1 X48.434 Y151.566 E0.47903
G1 X48.434 Y162.366 E0.47903
G1 X138.566 Y162.366 E3.99775
G1 X138.566 Y151.566 E0.47903
G1 X149.366 Y151.566 E0.47903
G1 X149.366 Y111.434 E1.78001
G1 X138.626 Y111.434 E0.47637
G1 X138.21 Y111.79 F21000
;TYPE:External perimeter
G1 F900
G1 X138.21 Y100.99 E0.47903
G1 X48.79 Y100.99 E3.96621
G1 X48.79 Y111.79 E0.47903
G1 X37.99 Y111.79 E0.47903
G1 X37.99 Y151.21 E1.74847
G1 X48.79 Y151.21 E0.47903
G1 X48.79 Y162.01 E0.47903
G1 X138.21 Y162.01 E3.96621
G1 X138.21 Y151.21 E0.47903
G1 X149.01 Y151.21 E0.47903
G1 X149.01 Y111.79 E1.74847
G1 X138.27 Y111.79 E0.47637
;WIPE_START
G1 X138.41 Y111.444 F21000
;WIPE_END
;WIPE_START
G1 F16800
G1 X138.41 Y109.204 E-0.76
;WIPE_END
G1 E-0.04 F6000
G1 Z0.9 F21000
G1 X161.079 Y163.279
G1 Z0.3
G1 E0.8 F6000
;TYPE:Internal perimeter
G1 F900
G1 X161.079 Y174.079 E0.47903
G1 X138.921 Y174.079 E0.98279
G1 X138.921 Y163.279 E0.47903
G1 X48.079 Y163.279 E4.0293
G1 X48.079 Y174.079 E0.47903
G1 X25.921 Y174.079 E0.98279
G1 X25.921 Y151.921 E0.98279
G1 X36.721 Y151.921 E0.47903
G1 X36.721 Y111.079 E1.81156
G1 X25.921 Y111.079 E0.47903
G1 X25.921 Y88.921 E0.98279
G1 X36.721 Y88.921 E0.47903
G1 X36.721 Y48.079 E1.81156
G1 X25.921 Y48.079 E0.47903
G1 X25.921 Y25.921 E0.98279
G1 X48.079 Y25.921 E0.98279
G1 X48.079 Y36.721 E0.47903
G1 X138.921 Y36.721 E4.0293
G1 X138.921 Y25.921 E0.47903
G1 X161.079 Y25.921 E0.98279
G1 X161.079 Y36.721 E0.47903
G1 X251.921 Y36.721 E4.0293
G1 X251.921 Y25.921 E0.47903
G1 X274.079 Y25.921 E0.98279
G1 X274.079 Y48.079 E0.98279
G1 X263.279 Y48.079 E0.47903
G1 X263.279 Y88.921 E1.81156
G1 X274.079 Y88.921 E0.47903
G1 X274.079 Y111.079 E0.98279
G1 X263.279 Y111.079 E0.47903
G1 X263.279 Y151.921 E1.81156
G1 X274.079 Y151.921 E0.47903
G1 X274.079 Y174.079 E0.98279
G1 X251.921 Y174.079 E0.98279
G1 X251.921 Y163.279 E0.47903
G1 X161.139 Y163.279 E4.02664
G1 X161.434 Y163.634 F21000
G1 F900
G1 X161.434 Y174.434 E0.47903
G1 X138.566 Y174.434 E1.01434
G1 X138.566 Y163.634 E0.47903
G1 X48.434 Y163.634 E3.99775
G1 X48.434 Y174.434 E0.47903
G1 X25.566 Y174.434 E1.01434
G1 X25.566 Y151.566 E1.01434
G1 X36.366 Y151.566 E0.47903
G1 X36.366 Y111.434 E1.78001
G1 X25.566 Y111.434 E0.47903
G1 X25.566 Y88.566 E1.01434
G1 X36.366 Y88.566 E0.47903
G1 X36.366 Y48.434 E1.78001
G1 X25.566 Y48.434 E0.47903
G1 X25.566 Y25.566 E1.01434
G1 X48.434 Y25.566 E1.01434
G1 X48.434 Y36.366 E0.47903
G1 X138.566 Y36.366 E3.99775
G1 X138.566 Y25.566 E0.47903
G1 X161.434 Y25.566 E1.01434
G1 X161.434 Y36.366 E0.47903
G1 X251.566 Y36.366 E3.99775
G1 X251.566 Y25.566 E0.47903
G1 X274.434 Y25.566 E1.01434
G1 X274.434 Y48.434 E1.01434
G1 X263.634 Y48.434 E0.47903
G1 X263.634 Y88.566 E1.78001
G1 X274.434 Y88.566 E0.47903
G1 X274.434 Y111.434 E1.01434
G1 X263.634 Y111.434 E0.47903
G1 X263.634 Y151.566 E1.78001
G1 X274.434 Y151.566 E0.47903
G1 X274.434 Y174.434 E1.01434
G1 X251.566 Y174.434 E1.01434
G1 X251.566 Y163.634 E0.47903
G1 X161.494 Y163.634 E3.99509
G1 X161.79 Y163.99 F21000
;TYPE:External perimeter
G1 F900
G1 X161.79 Y174.79 E0.47903
G1 X138.21 Y174.79 E1.04589
G1 X138.21 Y163.99 E0.47903
G1 X48.79 Y163.99 E3.96621
G1 X48.79 Y174.79 E0.47903
G1 X25.21 Y174.79 E1.04589
G1 X25.21 Y151.21 E1.04589
G1 X36.01 Y151.21 E0.47903
G1 X36.01 Y111.79 E1.74847
G1 X25.21 Y111.79 E0.47903
G1 X25.21 Y88.21 E1.04589
G1 X36.01 Y88.21 E0.47903
G1 X36.01 Y48.79 E1.74847
