; generated by SuperSlicer 2.3.57 on 2022-03-28 at 20:33:28 UTC

; 

; external perimeters extrusion width = 0.45mm
; perimeters extrusion width = 0.45mm
; infill extrusion width = 0.45mm
; solid infill extrusion width = 0.45mm
; top infill extrusion width = 0.45mm
; first layer extrusion width = 0.42mm

; object:{"name":"bedLevelTest","id":"bedLevelTest.stl id:0 copy 0","object_center":[150.000000,100.000000,0.000000],"boundingbox_center":[150.000000,100.000000,0.100000],"boundingbox_size":[250.000000,150.000000,0.200000]}
; Total objects to print: 1
M486 T1
; plater:{"center":[150.000000,100.000000,0.000000],"boundingbox_center":[150.000000,100.000000,0.100000],"boundingbox_size":[250.000000,150.000000,0.200000]}

;TYPE:Custom
; custom gcode: start_gcode
G29 S1 
T1 ;manually get the tool
M83 ;extruder in relative mode
M190 S60 ; wait for bed temp
M109 S215 ; wait for extruder temp
G1 X10Y10Z0.2 F1000.0 ; go to some safe location
G92 E0.0
G1 X60.0 E9.0  F1000.0 ; intro line
G1 X100.0 E12.5 F1000.0 ; intro line
G92 E0.0
; custom gcode end: start_gcode
G21 ; set units to millimeters
G90 ; use absolute coordinates
M83 ; use relative distances for extrusion
; custom gcode: start_filament_gcode
; Filament gcode
; custom gcode end: start_filament_gcode
;LAYER_CHANGE
;Z:0.2
;HEIGHT:0.2
G1 Z0.2 F21000
G1 E-0.8 F6000
M204 P3500
G1 Z0.8 F21000
G1 X20.15 Y20.382
G1 Z0.2
G1 E0.8 F6000
;TYPE:Skirt
;WIDTH:0.42
G1 F900
G1 X19.612 Y21.023 E0.03936
G1 X19.161 Y21.721 E0.03906
G1 X18.8 Y22.469 E0.03906
G1 X18.533 Y23.262 E0.03936
G1 X18.367 Y24.076 E0.03906
G1 X18.304 Y24.91 E0.03936
G1 X18.303 Y175.047 E7.06114
G1 X18.373 Y175.964 E0.04326
G1 X18.569 Y176.87 E0.04356
G1 X18.889 Y177.739 E0.04356
G1 X19.325 Y178.556 E0.04356
G1 X19.813 Y179.236 E0.03936
G1 X20.387 Y179.854 E0.03966
G1 X21.028 Y180.392 E0.03936
G1 X21.732 Y180.845 E0.03936
G1 X22.487 Y181.207 E0.03936
G1 X23.28 Y181.472 E0.03936
G1 X24.108 Y181.637 E0.03966
G1 X24.942 Y181.697 E0.03936
G1 X275.028 Y181.697 E11.76188
G1 X275.952 Y181.629 E0.04356
G1 X276.864 Y181.432 E0.04386
G1 X277.739 Y181.111 E0.04386
G1 X278.556 Y180.675 E0.04356
G1 X279.231 Y180.191 E0.03906
G1 X279.841 Y179.627 E0.03906
G1 X280.373 Y178.997 E0.03876
G1 X280.826 Y178.301 E0.03906
G1 X281.188 Y177.561 E0.03876
G1 X281.457 Y176.775 E0.03906
G1 X281.627 Y175.962 E0.03906
G1 X281.696 Y175.134 E0.03906
G1 X281.695 Y24.857 E7.06776
G1 X281.542 Y23.57 E0.06094
G1 X281.145 Y22.337 E0.06094
G1 X280.517 Y21.203 E0.06094
G1 X279.687 Y20.217 E0.06064
G1 X278.678 Y19.403 E0.06094
G1 X277.531 Y18.8 E0.06094
G1 X276.296 Y18.43 E0.06064
G1 X275.006 Y18.303 E0.06094
G1 X24.972 Y18.303 E11.75948
G1 X24.048 Y18.371 E0.04356
G1 X23.136 Y18.568 E0.04386
G1 X22.261 Y18.889 E0.04386
G1 X21.444 Y19.325 E0.04356
G1 X20.764 Y19.813 E0.03936
G1 X20.194 Y20.341 E0.03654
G1 X20.449 Y20.617 F21000
G1 F900
G1 X20.431 Y20.634 E0.00117
G1 X19.923 Y21.237 E0.03707
G1 X19.494 Y21.898 E0.03707
G1 X19.15 Y22.608 E0.03707
G1 X18.897 Y23.361 E0.03736
G1 X18.74 Y24.133 E0.03707
G1 X18.681 Y24.919 E0.03707
G1 X18.68 Y175.04 E7.06038
G1 X18.746 Y175.906 E0.04086
G1 X18.931 Y176.761 E0.04115
G1 X19.232 Y177.583 E0.04115
G1 X19.641 Y178.349 E0.04086
G1 X20.103 Y178.995 E0.03736
G1 X20.639 Y179.574 E0.03707
G1 X21.247 Y180.085 E0.03736
G1 X21.915 Y180.515 E0.03736
G1 X22.625 Y180.857 E0.03707
G1 X23.379 Y181.108 E0.03736
G1 X24.158 Y181.263 E0.03736
G1 X24.95 Y181.32 E0.03736
G1 X275.021 Y181.32 E11.76119
G1 X275.894 Y181.256 E0.04115
G1 X276.749 Y181.073 E0.04115
G1 X277.571 Y180.773 E0.04115
G1 X278.349 Y180.359 E0.04144
G1 X278.986 Y179.905 E0.03678
G1 X279.565 Y179.37 E0.03707
G1 X280.07 Y178.773 E0.03678
G1 X280.5 Y178.112 E0.03707
G1 X280.842 Y177.409 E0.03678
G1 X281.095 Y176.669 E0.03678
G1 X281.255 Y175.904 E0.03678
G1 X281.319 Y175.118 E0.03707
G1 X281.318 Y24.867 E7.06651
G1 X281.175 Y23.654 E0.05745
G1 X280.8 Y22.491 E0.05745
G1 X280.209 Y21.422 E0.05745
G1 X279.424 Y20.487 E0.05745
G1 X278.473 Y19.72 E0.05745
G1 X277.392 Y19.15 E0.05745
G1 X276.222 Y18.799 E0.05745
G1 X275.006 Y18.68 E0.05745
G1 X24.979 Y18.68 E11.75914
G1 X24.106 Y18.744 E0.04115
G1 X23.251 Y18.927 E0.04115
G1 X22.429 Y19.227 E0.04115
G1 X21.651 Y19.641 E0.04144
G1 X21.01 Y20.099 E0.03707
G1 X20.493 Y20.577 E0.03308
G1 X20.748 Y20.853 F21000
G1 F900
G1 X20.705 Y20.893 E0.00274
G1 X20.224 Y21.463 E0.0351
G1 X19.822 Y22.084 E0.03482
G1 X19.499 Y22.751 E0.03482
G1 X19.261 Y23.458 E0.0351
G1 X19.114 Y24.184 E0.03482
G1 X19.058 Y24.928 E0.0351
G1 X19.057 Y175.036 E7.05981
G1 X19.119 Y175.852 E0.03849
G1 X19.292 Y176.652 E0.03849
G1 X19.573 Y177.421 E0.03849
G1 X19.957 Y178.143 E0.03849
G1 X20.39 Y178.751 E0.0351
G1 X20.901 Y179.303 E0.03538
G1 X21.473 Y179.783 E0.0351
G1 X22.1 Y180.187 E0.0351
G1 X22.773 Y180.51 E0.0351
G1 X23.481 Y180.745 E0.0351
G1 X24.213 Y180.89 E0.0351
G1 X24.958 Y180.943 E0.0351
G1 X275.024 Y180.943 E11.76097
G1 X275.84 Y180.883 E0.03849
G1 X276.646 Y180.71 E0.03877
G1 X277.421 Y180.427 E0.03877
G1 X278.143 Y180.043 E0.03849
G1 X278.746 Y179.613 E0.03482
G1 X279.291 Y179.112 E0.03482
G1 X279.768 Y178.546 E0.03482
G1 X280.169 Y177.931 E0.03453
G1 X280.494 Y177.266 E0.03482
G1 X280.733 Y176.565 E0.03482
G1 X280.883 Y175.84 E0.03482
G1 X280.942 Y175.108 E0.03453
G1 X280.942 Y24.886 E7.06519
G1 X280.809 Y23.745 E0.05402
G1 X280.456 Y22.646 E0.0543
G1 X279.902 Y21.64 E0.05402
G1 X279.164 Y20.76 E0.05402
G1 X278.27 Y20.038 E0.05402
G1 X277.255 Y19.502 E0.05402
G1 X276.149 Y19.169 E0.0543
G1 X275.006 Y19.057 E0.05402
G1 X24.976 Y19.057 E11.75927
G1 X24.16 Y19.117 E0.03849
G1 X23.354 Y19.29 E0.03877
G1 X22.579 Y19.573 E0.03877
G1 X21.857 Y19.957 E0.03849
G1 X21.249 Y20.39 E0.0351
G1 X20.792 Y20.812 E0.02926
G1 X21.047 Y21.089 F21000
G1 F900
G1 X20.979 Y21.152 E0.00436
G1 X20.528 Y21.686 E0.03287
G1 X20.148 Y22.273 E0.03287
G1 X19.845 Y22.902 E0.03287
G1 X19.624 Y23.559 E0.0326
G1 X19.487 Y24.239 E0.0326
G1 X19.435 Y24.936 E0.03287
G1 X19.434 Y175.029 E7.0591
G1 X19.492 Y175.796 E0.03615
G1 X19.654 Y176.547 E0.03615
G1 X19.916 Y177.264 E0.03588
G1 X20.276 Y177.943 E0.03615
G1 X20.682 Y178.512 E0.03287
G1 X21.16 Y179.029 E0.03315
G1 X21.696 Y179.479 E0.03287
G1 X22.283 Y179.857 E0.03287
G1 X22.913 Y180.16 E0.03287
G1 X23.576 Y180.38 E0.03287
G1 X24.262 Y180.516 E0.03287
G1 X24.959 Y180.565 E0.03287
G1 X275.017 Y180.566 E11.7606
G1 X275.79 Y180.509 E0.03643
G1 X276.541 Y180.348 E0.03615
G1 X277.264 Y180.084 E0.03615
G1 X277.943 Y179.724 E0.03615
G1 X278.507 Y179.322 E0.0326
G1 X279.017 Y178.852 E0.0326
G1 X279.465 Y178.323 E0.0326
G1 X279.843 Y177.742 E0.0326
G1 X280.146 Y177.119 E0.0326
G1 X280.37 Y176.463 E0.0326
G1 X280.51 Y175.784 E0.0326
G1 X280.565 Y175.093 E0.0326
G1 X280.565 Y24.901 E7.06376
G1 X280.442 Y23.832 E0.05063
G1 X280.115 Y22.806 E0.05063
G1 X279.597 Y21.862 E0.05063
G1 X278.902 Y21.032 E0.05091
G1 X278.061 Y20.351 E0.05091
G1 X277.108 Y19.849 E0.05063
G1 X276.077 Y19.54 E0.05063
G1 X275.006 Y19.434 E0.05063
G1 X24.983 Y19.434 E11.75895
G1 X24.21 Y19.491 E0.03643
G1 X23.459 Y19.652 E0.03615
G1 X22.736 Y19.916 E0.03615
G1 X22.057 Y20.276 E0.03615
G1 X21.493 Y20.678 E0.0326
G1 X21.091 Y21.048 E0.02569
G1 X21.333 Y21.346 F21000
G1 F900
G1 X21.252 Y21.412 E0.00491
G1 X20.479 Y22.453 E0.06098
G1 X19.989 Y23.654 E0.06098
G1 X19.812 Y24.944 E0.06124
G1 X19.812 Y175.024 E7.0585
G1 X19.864 Y175.736 E0.03359
G1 X20.014 Y176.435 E0.03359
G1 X20.258 Y177.106 E0.03359
G1 X20.592 Y177.737 E0.03359
G1 X21.416 Y178.752 E0.0615
G1 X22.463 Y179.526 E0.06124
G1 X23.675 Y180.017 E0.0615
G1 X24.966 Y180.188 E0.06124
G1 X275.018 Y180.189 E11.76032
G1 X275.731 Y180.137 E0.03359
G1 X276.429 Y179.988 E0.03359
G1 X277.1 Y179.744 E0.03359
G1 X277.737 Y179.408 E0.03385
G1 X278.74 Y178.596 E0.06072
G1 X279.512 Y177.561 E0.06072
G1 X280.006 Y176.363 E0.06098
G1 X280.188 Y175.084 E0.06072
G1 X280.188 Y24.914 E7.06273
G1 X280.074 Y23.915 E0.0473
G1 X279.769 Y22.956 E0.0473
G1 X279.285 Y22.075 E0.0473
G1 X278.64 Y21.303 E0.0473
G1 X277.859 Y20.67 E0.0473
G1 X276.97 Y20.2 E0.0473
G1 X276.007 Y19.91 E0.0473
G1 X275.006 Y19.811 E0.0473
G1 X24.982 Y19.811 E11.75899
G1 X24.269 Y19.863 E0.03359
G1 X23.571 Y20.012 E0.03359
G1 X22.9 Y20.256 E0.03359
G1 X22.263 Y20.592 E0.03385
G1 X21.38 Y21.309 E0.05351
; INIT printing object bedLevelTest.stl id:0 copy 0
;WIPE_START
G1 F16800
G1 X21.252 Y21.412 E-0.05577
G1 X20.479 Y22.453 E-0.4399
G1 X20.185 Y23.175 E-0.26433
;WIPE_END
G1 E-0.04 F6000
G1 Z0.8 F21000
; printing object bedLevelTest.stl id:0 copy 0
M486 S0
G1 X161.036 Y111.036
G1 Z0.2
G1 E0.8 F6000
;TYPE:Internal perimeter
G1 F900
G1 X150.236 Y111.036 E0.50794
G1 X150.236 Y151.964 E1.92492
G1 X161.036 Y151.964 E0.50794
G1 X161.036 Y162.764 E0.50794
G1 X251.964 Y162.764 E4.27649
G1 X251.964 Y151.964 E0.50794
G1 X262.764 Y151.964 E0.50794
G1 X262.764 Y111.036 E1.92492
G1 X251.964 Y111.036 E0.50794
G1 X251.964 Y100.236 E0.50794
G1 X161.036 Y100.236 E4.27649
G1 X161.036 Y110.976 E0.50512
G1 X161.413 Y111.413 F21000
G1 F900
G1 X150.613 Y111.413 E0.50794
G1 X150.613 Y151.587 E1.88945
G1 X161.413 Y151.587 E0.50794
G1 X161.413 Y162.387 E0.50794
G1 X251.587 Y162.387 E4.24102
G1 X251.587 Y151.587 E0.50794
G1 X262.387 Y151.587 E0.50794
G1 X262.387 Y111.413 E1.88945
G1 X251.587 Y111.413 E0.50794
G1 X251.587 Y100.613 E0.50794
G1 X161.413 Y100.613 E4.24102
G1 X161.413 Y111.353 E0.50512
G1 X161.79 Y111.79 F21000
;TYPE:External perimeter
G1 F900
G1 X150.99 Y111.79 E0.50794
G1 X150.99 Y151.21 E1.85398
G1 X161.79 Y151.21 E0.50794
G1 X161.79 Y162.01 E0.50794
G1 X251.21 Y162.01 E4.20555
G1 X251.21 Y151.21 E0.50794
G1 X262.01 Y151.21 E0.50794
G1 X262.01 Y111.79 E1.85398
G1 X251.21 Y111.79 E0.50794
G1 X251.21 Y100.99 E0.50794
G1 X161.79 Y100.99 E4.20555
G1 X161.79 Y111.73 E0.50512
;WIPE_START
G1 X161.444 Y111.59 F21000
;WIPE_END
G1 X161.036 Y88.964
;TYPE:Internal perimeter
G1 F900
G1 X161.036 Y99.764 E0.50794
G1 X251.964 Y99.764 E4.27649
G1 X251.964 Y88.964 E0.50794
G1 X262.764 Y88.964 E0.50794
G1 X262.764 Y48.036 E1.92492
G1 X251.964 Y48.036 E0.50794
G1 X251.964 Y37.236 E0.50794
G1 X161.036 Y37.236 E4.27649
G1 X161.036 Y48.036 E0.50794
G1 X150.236 Y48.036 E0.50794
G1 X150.236 Y88.964 E1.92492
G1 X160.976 Y88.964 E0.50512
G1 X161.413 Y88.587 F21000
G1 F900
G1 X161.413 Y99.387 E0.50794
G1 X251.587 Y99.387 E4.24102
G1 X251.587 Y88.587 E0.50794
G1 X262.387 Y88.587 E0.50794
G1 X262.387 Y48.413 E1.88945
G1 X251.587 Y48.413 E0.50794
G1 X251.587 Y37.613 E0.50794
G1 X161.413 Y37.613 E4.24102
G1 X161.413 Y48.413 E0.50794
G1 X150.613 Y48.413 E0.50794
G1 X150.613 Y88.587 E1.88945
G1 X161.353 Y88.587 E0.50512
G1 X161.79 Y88.21 F21000
;TYPE:External perimeter
G1 F900
G1 X161.79 Y99.01 E0.50794
G1 X251.21 Y99.01 E4.20555
G1 X251.21 Y88.21 E0.50794
G1 X262.01 Y88.21 E0.50794
G1 X262.01 Y48.79 E1.85398
G1 X251.21 Y48.79 E0.50794
G1 X251.21 Y37.99 E0.50794
G1 X161.79 Y37.99 E4.20555
G1 X161.79 Y48.79 E0.50794
G1 X150.99 Y48.79 E0.50794
G1 X150.99 Y88.21 E1.85398
G1 X161.73 Y88.21 E0.50512
;WIPE_START
G1 X161.59 Y88.556 F21000
;WIPE_END
G1 X138.964 Y88.964
;TYPE:Internal perimeter
G1 F900
G1 X149.764 Y88.964 E0.50794
G1 X149.764 Y48.036 E1.92492
G1 X138.964 Y48.036 E0.50794
G1 X138.964 Y37.236 E0.50794
G1 X48.036 Y37.236 E4.27649
G1 X48.036 Y48.036 E0.50794
G1 X37.236 Y48.036 E0.50794
G1 X37.236 Y88.964 E1.92492
G1 X48.036 Y88.964 E0.50794
G1 X48.036 Y99.764 E0.50794
G1 X138.964 Y99.764 E4.27649
G1 X138.964 Y89.024 E0.50512
G1 X138.587 Y88.587 F21000
G1 F900
G1 X149.387 Y88.587 E0.50794
G1 X149.387 Y48.413 E1.88945
G1 X138.587 Y48.413 E0.50794
G1 X138.587 Y37.613 E0.50794
G1 X48.413 Y37.613 E4.24102
G1 X48.413 Y48.413 E0.50794
G1 X37.613 Y48.413 E0.50794
G1 X37.613 Y88.587 E1.88945
G1 X48.413 Y88.587 E0.50794
G1 X48.413 Y99.387 E0.50794
G1 X138.587 Y99.387 E4.24102
G1 X138.587 Y88.647 E0.50512
G1 X138.21 Y88.21 F21000
;TYPE:External perimeter
G1 F900
G1 X149.01 Y88.21 E0.50794
G1 X149.01 Y48.79 E1.85398
G1 X138.21 Y48.79 E0.50794
G1 X138.21 Y37.99 E0.50794
G1 X48.79 Y37.99 E4.20555
G1 X48.79 Y48.79 E0.50794
G1 X37.99 Y48.79 E0.50794
G1 X37.99 Y88.21 E1.85398
G1 X48.79 Y88.21 E0.50794
G1 X48.79 Y99.01 E0.50794
G1 X138.21 Y99.01 E4.20555
G1 X138.21 Y88.27 E0.50512
;WIPE_START
G1 X138.556 Y88.41 F21000
;WIPE_END
G1 X138.964 Y111.036
;TYPE:Internal perimeter
G1 F900
G1 X138.964 Y100.236 E0.50794
G1 X48.036 Y100.236 E4.27649
G1 X48.036 Y111.036 E0.50794
G1 X37.236 Y111.036 E0.50794
G1 X37.236 Y151.964 E1.92492
G1 X48.036 Y151.964 E0.50794
G1 X48.036 Y162.764 E0.50794
G1 X138.964 Y162.764 E4.27649
G1 X138.964 Y151.964 E0.50794
G1 X149.764 Y151.964 E0.50794
G1 X149.764 Y111.036 E1.92492
G1 X139.024 Y111.036 E0.50512
G1 X138.587 Y111.413 F21000
G1 F900
G1 X138.587 Y100.613 E0.50794
G1 X48.413 Y100.613 E4.24102
G1 X48.413 Y111.413 E0.50794
G1 X37.613 Y111.413 E0.50794
G1 X37.613 Y151.587 E1.88945
G1 X48.413 Y151.587 E0.50794
G1 X48.413 Y162.387 E0.50794
G1 X138.587 Y162.387 E4.24102
G1 X138.587 Y151.587 E0.50794
G1 X149.387 Y151.587 E0.50794
G1 X149.387 Y111.413 E1.88945
G1 X138.647 Y111.413 E0.50512
G1 X138.21 Y111.79 F21000
;TYPE:External perimeter
G1 F900
G1 X138.21 Y100.99 E0.50794
G1 X48.79 Y100.99 E4.20555
G1 X48.79 Y111.79 E0.50794
G1 X37.99 Y111.79 E0.50794
G1 X37.99 Y151.21 E1.85398
G1 X48.79 Y151.21 E0.50794
G1 X48.79 Y162.01 E0.50794
G1 X138.21 Y162.01 E4.20555
G1 X138.21 Y151.21 E0.50794
G1 X149.01 Y151.21 E0.50794
G1 X149.01 Y111.79 E1.85398
G1 X138.27 Y111.79 E0.50512
;WIPE_START
G1 X138.41 Y111.444 F21000
;WIPE_END
;WIPE_START
G1 F16800
G1 X138.41 Y109.204 E-0.76
;WIPE_END
G1 E-0.04 F6000
G1 Z0.8 F21000
G1 X161.036 Y163.236
G1 Z0.2
G1 E0.8 F6000
;TYPE:Internal perimeter
G1 F900
G1 X161.036 Y174.036 E0.50794
G1 X138.964 Y174.036 E1.03806
G1 X138.964 Y163.236 E0.50794
G1 X48.036 Y163.236 E4.27649
G1 X48.036 Y174.036 E0.50794
G1 X25.964 Y174.036 E1.03806
G1 X25.964 Y151.964 E1.03806
G1 X36.764 Y151.964 E0.50794
G1 X36.764 Y111.036 E1.92492
G1 X25.964 Y111.036 E0.50794
G1 X25.964 Y88.964 E1.03806
G1 X36.764 Y88.964 E0.50794
G1 X36.764 Y48.036 E1.92492
G1 X25.964 Y48.036 E0.50794
G1 X25.964 Y25.964 E1.03806
G1 X48.036 Y25.964 E1.03806
G1 X48.036 Y36.764 E0.50794
G1 X138.964 Y36.764 E4.27649
G1 X138.964 Y25.964 E0.50794
G1 X161.036 Y25.964 E1.03806
G1 X161.036 Y36.764 E0.50794
G1 X251.964 Y36.764 E4.27649
G1 X251.964 Y25.964 E0.50794
G1 X274.036 Y25.964 E1.03806
G1 X274.036 Y48.036 E1.03806
G1 X263.236 Y48.036 E0.50794
G1 X263.236 Y88.964 E1.92492
G1 X274.036 Y88.964 E0.50794
G1 X274.036 Y111.036 E1.03806
G1 X263.236 Y111.036 E0.50794
G1 X263.236 Y151.964 E1.92492
G1 X274.036 Y151.964 E0.50794
G1 X274.036 Y174.036 E1.03806
G1 X251.964 Y174.036 E1.03806
G1 X251.964 Y163.236 E0.50794
G1 X161.096 Y163.236 E4.27367
G1 X161.413 Y163.613 F21000
G1 F900
G1 X161.413 Y174.413 E0.50794
G1 X138.587 Y174.413 E1.07353
G1 X138.587 Y163.613 E0.50794
G1 X48.413 Y163.613 E4.24102
G1 X48.413 Y174.413 E0.50794
G1 X25.587 Y174.413 E1.07353
G1 X25.587 Y151.587 E1.07353
G1 X36.387 Y151.587 E0.50794
G1 X36.387 Y111.413 E1.88945
G1 X25.587 Y111.413 E0.50794
G1 X25.587 Y88.587 E1.07353
G1 X36.387 Y88.587 E0.50794
G1 X36.387 Y48.413 E1.88945
G1 X25.587 Y48.413 E0.50794
G1 X25.587 Y25.587 E1.07353
G1 X48.413 Y25.587 E1.07353
G1 X48.413 Y36.387 E0.50794
G1 X138.587 Y36.387 E4.24102
G1 X138.587 Y25.587 E0.50794
G1 X161.413 Y25.587 E1.07353
G1 X161.413 Y36.387 E0.50794
G1 X251.587 Y36.387 E4.24102
G1 X251.587 Y25.587 E0.50794
G1 X274.413 Y25.587 E1.07353
G1 X274.413 Y48.413 E1.07353
G1 X263.613 Y48.413 E0.50794
G1 X263.613 Y88.587 E1.88945
G1 X274.413 Y88.587 E0.50794
G1 X274.413 Y111.413 E1.07353
G1 X263.613 Y111.413 E0.50794
G1 X263.613 Y151.587 E1.88945
G1 X274.413 Y151.587 E0.50794
G1 X274.413 Y174.413 E1.07353
G1 X251.587 Y174.413 E1.07353
G1 X251.587 Y163.613 E0.50794
G1 X161.473 Y163.613 E4.2382
G1 X161.79 Y163.99 F21000
;TYPE:External perimeter
G1 F900
G1 X161.79 Y174.79 E0.50794
G1 X138.21 Y174.79 E1.109
G1 X138.21 Y163.99 E0.50794
G1 X48.79 Y163.99 E4.20555
G1 X48.79 Y174.79 E0.50794
G1 X25.21 Y174.79 E1.109
G1 X25.21 Y151.21 E1.109
G1 X36.01 Y151.21 E0.50794
G1 X36.01 Y111.79 E1.85398
