; generated by SuperSlicer 2.3.57 on 2022-03-28 at 23:40:34 UTC

; 

; external perimeters extrusion width = 0.45mm
; perimeters extrusion width = 0.45mm
; infill extrusion width = 0.45mm
; solid infill extrusion width = 0.45mm
; top infill extrusion width = 0.45mm
; support material extrusion width = 0.50mm
; first layer extrusion width = 0.42mm

; object:{"name":"lightBox5_withSupports_taper","id":"lightBox5_withSupports_taper.stl id:0 copy 0","object_center":[150.000000,100.000000,0.000000],"boundingbox_center":[150.000000,100.000000,15.125000],"boundingbox_size":[22.325001,22.325001,30.250000]}
; Total objects to print: 1
M486 T1
; plater:{"center":[150.000000,100.000000,0.000000],"boundingbox_center":[150.000000,100.000000,15.125000],"boundingbox_size":[22.325001,22.325001,30.250000]}

;TYPE:Custom
; custom gcode: start_gcode
G29 S1 
T1 ;manually get the tool
M83 ;extruder in relative mode
M190 S60 ; wait for bed temp
M109 S215 ; wait for extruder temp
G1 X10Y10Z0.2 F10000.0 ; go to some safe location
G92 E0.0
G1 X60.0 E9.0  F1000.0 ; intro line
G1 X100.0 E12.5 F1000.0 ; intro line
G92 E0.0
; custom gcode end: start_gcode
G21 ; set units to millimeters
G90 ; use absolute coordinates
M83 ; use relative distances for extrusion
; custom gcode: start_filament_gcode
; Filament gcode
; custom gcode end: start_filament_gcode
;LAYER_CHANGE
;Z:0.2
;HEIGHT:0.2
G1 Z0.2 F21000
G1 E-0.8 F6000
M204 P3500
G1 Z0.8 F21000
G1 X133.216 Y84.404
G1 Z0.2
G1 E0.8 F6000
;TYPE:Skirt
;WIDTH:0.42
G1 F900
G1 X132.866 Y85.055 E0.03479
G1 X132.607 Y85.742 E0.03451
G1 X132.44 Y86.463 E0.03479
G1 X132.37 Y87.193 E0.03451
G1 X132.376 Y112.783 E1.20351
G1 X132.605 Y114.089 E0.06235
G1 X133.139 Y115.308 E0.06262
G1 X133.948 Y116.366 E0.06262
G1 X134.98 Y117.198 E0.06235
G1 X135.791 Y117.618 E0.04299
G1 X136.661 Y117.9 E0.04299
G1 X139.272 Y118.207 E0.12364
G1 X162.375 Y118.038 E1.08661
G1 X163.686 Y117.806 E0.06262
G1 X164.9 Y117.272 E0.06235
G1 X165.952 Y116.466 E0.06235
G1 X166.784 Y115.434 E0.06235
G1 X167.134 Y114.782 E0.03479
G1 X167.396 Y114.084 E0.03506
G1 X167.562 Y113.364 E0.03479
G1 X167.63 Y112.627 E0.03479
G1 X167.632 Y87.34 E1.18928
G1 X167.54 Y86.349 E0.04681
G1 X167.332 Y85.555 E0.03862
G1 X167.013 Y84.805 E0.03834
G1 X164.647 Y80.382 E0.2359
G1 X163.983 Y79.448 E0.05391
G1 X163.118 Y78.653 E0.05527
G1 X162.1 Y78.054 E0.05554
G1 X160.978 Y77.684 E0.05554
G1 X159.81 Y77.559 E0.05527
G1 X143.908 Y77.559 E0.74791
G1 X142.582 Y77.734 E0.06289
G1 X141.734 Y78.026 E0.04217
G1 X140.945 Y78.451 E0.04217
G1 X134.705 Y82.823 E0.35835
G1 X133.884 Y83.538 E0.05118
G1 X133.252 Y84.356 E0.04863
G1 X133.548 Y84.583 F21000
G1 F900
G1 X133.219 Y85.191 E0.03253
G1 X132.971 Y85.843 E0.03279
G1 X132.813 Y86.516 E0.03253
G1 X132.747 Y87.21 E0.03279
G1 X132.751 Y112.738 E1.20059
G1 X132.959 Y113.955 E0.05809
G1 X133.451 Y115.094 E0.05835
G1 X134.199 Y116.084 E0.05835
G1 X135.156 Y116.864 E0.05809
G1 X135.929 Y117.267 E0.04098
G1 X136.752 Y117.534 E0.04071
G1 X139.288 Y117.83 E0.12005
G1 X162.332 Y117.663 E1.08386
G1 X163.555 Y117.452 E0.05835
G1 X164.688 Y116.959 E0.05809
G1 X165.672 Y116.213 E0.05809
G1 X166.452 Y115.255 E0.05809
G1 X166.786 Y114.637 E0.03306
G1 X167.033 Y113.985 E0.03279
G1 X167.189 Y113.305 E0.03279
G1 X167.253 Y112.611 E0.03279
G1 X167.255 Y87.342 E1.18845
G1 X167.175 Y86.446 E0.04229
G1 X166.982 Y85.694 E0.03649
G1 X166.681 Y84.985 E0.03623
G1 X164.327 Y80.581 E0.23487
G1 X163.729 Y79.731 E0.04888
G1 X162.92 Y78.976 E0.05204
G1 X161.965 Y78.407 E0.0523
G1 X160.915 Y78.056 E0.05204
G1 X159.81 Y77.936 E0.0523
G1 X143.922 Y77.936 E0.74724
G1 X142.697 Y78.094 E0.05809
G1 X141.893 Y78.368 E0.03992
G1 X141.146 Y78.77 E0.03992
G1 X134.93 Y83.126 E0.357
G1 X134.17 Y83.785 E0.0473
G1 X133.585 Y84.536 E0.04474
; INIT printing object lightBox5_withSupports_taper.stl id:0 copy 0
;WIPE_START
G1 F16800
G1 X133.219 Y85.191 E-0.25478
G1 X132.971 Y85.843 E-0.23658
G1 X132.813 Y86.516 E-0.23467
G1 X132.804 Y86.616 E-0.03397
;WIPE_END
G1 E-0.04 F6000
G1 Z0.8 F21000
; printing object lightBox5_withSupports_taper.stl id:0 copy 0
M486 S0
G1 X159.05 Y90.356
G1 Z0.2
G1 E0.8 F6000
;TYPE:Support material
G1 F900
G1 X159.05 Y109.482 E0.89948
G1 X158.296 Y109.482 E0.03547
G1 X158.296 Y90.518 E0.89186
G1 X157.542 Y90.518 E0.03547
G1 X157.542 Y109.482 E0.89186
G1 X156.787 Y109.482 E0.03547
G1 X156.787 Y90.518 E0.89186
G1 X156.033 Y90.518 E0.03547
G1 X156.033 Y109.482 E0.89186
G1 X155.279 Y109.482 E0.03547
G1 X155.279 Y90.356 E0.89948
;WIPE_START
G1 F16800
G1 X155.279 Y92.596 E-0.76
;WIPE_END
G1 E-0.04 F6000
G1 Z0.8 F21000
G1 X162.067 Y87.356
G1 Z0.2
G1 E0.8 F6000
G1 F900
G1 X162.067 Y112.481 E1.18166
G1 X161.312 Y112.481 E0.03547
G1 X161.312 Y111.843 E0.03
G1 X161.445 Y111.843 E0.00622
G1 X161.843 Y111.445 E0.02653
G1 X161.843 Y88.555 E1.07651
G1 X161.445 Y88.157 E0.02653
G1 X161.312 Y88.157 E0.00622
G1 X161.312 Y87.519 E0.03
G1 X160.558 Y87.519 E0.03547
G1 X160.558 Y88.157 E0.03
G1 X159.804 Y88.157 E0.03547
G1 X159.804 Y83.124 E0.23668
G1 X159.05 Y83.124 E0.03547
G1 X159.05 Y88.157 E0.23668
G1 X158.296 Y88.157 E0.03547
G1 X158.296 Y83.124 E0.23668
G1 X157.542 Y83.124 E0.03547
G1 X157.542 Y88.157 E0.23668
G1 X156.787 Y88.157 E0.03547
G1 X156.787 Y83.124 E0.23668
G1 X156.033 Y83.124 E0.03547
G1 X156.033 Y88.157 E0.23668
G1 X155.279 Y88.157 E0.03547
G1 X155.279 Y83.124 E0.23668
G1 X154.525 Y83.124 E0.03547
G1 X154.525 Y88.187 E0.23811
G1 X154.157 Y88.555 E0.02451
G1 X154.157 Y90.12 E0.07356
G1 X154.525 Y90.488 E0.02451
G1 X154.525 Y109.482 E0.89329
G1 X153.771 Y109.482 E0.03547
G1 X153.771 Y83.124 E1.23962
G1 X153.017 Y83.124 E0.03547
G1 X153.017 Y109.482 E1.23962
G1 X152.262 Y109.482 E0.03547
G1 X152.262 Y83.124 E1.23962
G1 X151.508 Y83.124 E0.03547
G1 X151.508 Y109.482 E1.23962
G1 X150.754 Y109.482 E0.03547
G1 X150.754 Y83.124 E1.23962
G1 X150 Y83.124 E0.03547
G1 X150 Y88.157 E0.23668
G1 X150.12 Y88.157 E0.00562
G1 X150.518 Y88.555 E0.02653
G1 X150.518 Y90.12 E0.07356
G1 X150.12 Y90.518 E0.02653
G1 X150 Y90.518 E0.00562
G1 X150 Y109.482 E0.89186
G1 X149.246 Y109.482 E0.03547
G1 X149.246 Y90.518 E0.89186
G1 X148.492 Y90.518 E0.03547
G1 X148.492 Y109.482 E0.89186
G1 X147.738 Y109.482 E0.03547
G1 X147.738 Y90.518 E0.89186
G1 X146.983 Y90.518 E0.03547
G1 X146.983 Y109.482 E0.89186
G1 X146.229 Y109.482 E0.03547
G1 X146.229 Y90.518 E0.89186
G1 X145.475 Y90.518 E0.03547
G1 X145.475 Y109.482 E0.89186
G1 X144.721 Y109.482 E0.03547
G1 X144.721 Y90.518 E0.89186
G1 X143.967 Y90.518 E0.03547
G1 X143.967 Y109.482 E0.89186
G1 X143.213 Y109.482 E0.03547
G1 X143.213 Y90.518 E0.89186
G1 X142.458 Y90.518 E0.03547
G1 X142.458 Y109.482 E0.89186
G1 X141.704 Y109.482 E0.03547
G1 X141.704 Y90.518 E0.89186
G1 X140.95 Y90.518 E0.03547
G1 X140.95 Y109.644 E0.89948
;WIPE_START
G1 F16800
G1 X140.95 Y107.404 E-0.76
;WIPE_END
G1 E-0.04 F6000
G1 Z0.8 F21000
G1 X160.558 Y111.681
G1 Z0.2
G1 E0.8 F6000
G1 F900
G1 X160.558 Y112.481 E0.03763
G1 X159.804 Y112.481 E0.03547
G1 X159.804 Y111.843 E0.03
G1 X159.05 Y111.843 E0.03547
G1 X159.05 Y112.481 E0.03
G1 X158.296 Y112.481 E0.03547
G1 X158.296 Y111.843 E0.03
G1 X157.542 Y111.843 E0.03547
G1 X157.542 Y112.481 E0.03
G1 X156.787 Y112.481 E0.03547
G1 X156.787 Y111.843 E0.03
G1 X156.033 Y111.843 E0.03547
G1 X156.033 Y112.481 E0.03
G1 X155.279 Y112.481 E0.03547
G1 X155.279 Y111.843 E0.03
G1 X154.525 Y111.843 E0.03547
G1 X154.525 Y112.481 E0.03
G1 X153.771 Y112.481 E0.03547
G1 X153.771 Y111.843 E0.03
G1 X153.017 Y111.843 E0.03547
G1 X153.017 Y112.481 E0.03
G1 X152.262 Y112.481 E0.03547
G1 X152.262 Y111.843 E0.03
G1 X151.508 Y111.843 E0.03547
G1 X151.508 Y112.481 E0.03
G1 X150.754 Y112.481 E0.03547
G1 X150.754 Y111.843 E0.03
G1 X150 Y111.843 E0.03547
G1 X150 Y112.481 E0.03
G1 X149.246 Y112.481 E0.03547
G1 X149.246 Y111.843 E0.03
G1 X148.492 Y111.843 E0.03547
G1 X148.492 Y112.481 E0.03
G1 X147.738 Y112.481 E0.03547
G1 X147.738 Y111.843 E0.03
G1 X146.983 Y111.843 E0.03547
G1 X146.983 Y112.481 E0.03
G1 X146.229 Y112.481 E0.03547
G1 X146.229 Y111.843 E0.03
G1 X145.475 Y111.843 E0.03547
G1 X145.475 Y112.481 E0.03
G1 X144.721 Y112.481 E0.03547
G1 X144.721 Y111.843 E0.03
G1 X143.967 Y111.843 E0.03547
G1 X143.967 Y112.481 E0.03
G1 X143.213 Y112.481 E0.03547
G1 X143.213 Y111.843 E0.03
G1 X142.458 Y111.843 E0.03547
G1 X142.458 Y112.481 E0.03
G1 X141.704 Y112.481 E0.03547
G1 X141.704 Y111.843 E0.03
G1 X140.95 Y111.843 E0.03547
G1 X140.95 Y112.481 E0.03
G1 X140.196 Y112.481 E0.03547
G1 X140.196 Y111.843 E0.03
G1 X139.442 Y111.843 E0.03547
G1 X139.442 Y112.644 E0.03763
;WIPE_START
G1 F16800
G1 X139.442 Y111.843 E-0.27145
G1 X140.196 Y111.843 E-0.25588
G1 X140.196 Y112.481 E-0.21643
G1 X140.244 Y112.481 E-0.01625
;WIPE_END
G1 E-0.04 F6000
G1 Z0.8 F21000
G1 X149.246 Y88.319
G1 Z0.2
G1 E0.8 F6000
G1 F900
G1 X149.246 Y83.124 E0.2443
G1 X148.492 Y83.124 E0.03547
G1 X148.492 Y88.157 E0.23668
G1 X147.738 Y88.157 E0.03547
G1 X147.738 Y83.124 E0.23668
G1 X146.983 Y83.124 E0.03547
G1 X146.983 Y88.157 E0.23668
G1 X146.229 Y88.157 E0.03547
G1 X146.229 Y83.124 E0.23668
G1 X145.475 Y83.124 E0.03547
G1 X145.475 Y88.157 E0.23668
G1 X144.721 Y88.157 E0.03547
G1 X144.721 Y83.124 E0.23668
G1 X143.967 Y83.124 E0.03547
G1 X143.967 Y88.157 E0.23668
G1 X143.213 Y88.157 E0.03547
G1 X143.213 Y87.519 E0.03
G1 X142.458 Y87.519 E0.03547
G1 X142.458 Y88.157 E0.03
G1 X141.704 Y88.157 E0.03547
G1 X141.704 Y87.519 E0.03
G1 X140.95 Y87.519 E0.03547
G1 X140.95 Y88.157 E0.03
G1 X140.196 Y88.157 E0.03547
G1 X140.196 Y87.519 E0.03
G1 X139.442 Y87.519 E0.03547
G1 X139.442 Y88.319 E0.03763
G1 X138.688 Y87.356 F21000
G1 F900
G1 X138.688 Y88.157 E0.03763
G1 X138.555 Y88.157 E0.00622
G1 X138.157 Y88.555 E0.02653
G1 X138.157 Y111.445 E1.07651
G1 X138.555 Y111.843 E0.02653
G1 X138.688 Y111.843 E0.00622
G1 X138.688 Y112.481 E0.03
G1 X137.933 Y112.481 E0.03547
G1 X137.933 Y87.356 E1.18166
;WIPE_START
G1 F16800
G1 X137.933 Y89.596 E-0.76
;WIPE_END
G1 E-0.04 F6000
G1 Z0.8 F21000
G1 X150 Y110.953
G1 Z0.2
G1 E0.8 F6000
;TYPE:External perimeter
G1 F900
G1 X139.047 Y110.953 E0.51511
G1 X139.047 Y89.047 E1.03022
G1 X149.628 Y89.047 E0.49759
G1 X149.628 Y89.628 E0.02728
G1 X139.628 Y89.628 E0.47031
G1 X139.628 Y110.372 E0.97567
G1 X160.372 Y110.372 E0.97567
G1 X160.372 Y89.628 E0.97567
G1 X155.047 Y89.628 E0.25044
G1 X155.047 Y89.047 E0.02728
G1 X160.953 Y89.047 E0.27772
G1 X160.953 Y110.953 E1.03022
G1 X150.06 Y110.953 E0.51229
;WIPE_START
G1 X149.8 Y110.606 F21000
;WIPE_END
;WIPE_START
G1 F16800
G1 X152.04 Y110.599 E-0.76
;WIPE_END
G1 E-0.04 F6000
G1 Z0.8 F21000
G1 X155.221 Y89.338
G1 Z0.2
G1 E0.8 F6000
;TYPE:Gap fill
;WIDTH:0.276084
G1 F600
G1 X160.546 Y89.338 E0.15486
;WIDTH:0.345816
G1 X160.662 Y89.454 E0.00623
;WIDTH:0.276084
G1 X160.662 Y110.546 E0.61338
;WIDTH:0.345815
G1 X160.546 Y110.662 E0.00623
;WIDTH:0.276082
G1 X139.454 Y110.662 E0.61338
;WIDTH:0.345816
G1 X139.338 Y110.546 E0.00623
;WIDTH:0.276084
G1 X139.338 Y89.454 E0.61338
;WIDTH:0.345817
G1 X139.454 Y89.338 E0.00623
;WIDTH:0.276082
G1 X144.396 Y89.338 E0.14371
G1 X149.338 Y89.337 E0.14371
G1 X149.454 Y89.337 E0.00339
; INIT stop printing object lightBox5_withSupports_taper.stl id:0 copy 0
;LAYER_CHANGE
;Z:0.4
;HEIGHT:0.2
; stop printing object lightBox5_withSupports_taper.stl id:0 copy 0
M486 S-1
G1 Z0.4 F21000
M104 S210 ; set temperature
; INIT printing object lightBox5_withSupports_taper.stl id:0 copy 0
; printing object lightBox5_withSupports_taper.stl id:0 copy 0
M486 S0
G1 X139.593 Y89.593
G1 X139.593 Y110.407
G1 X150 Y110.918
G1 X150 Y110.938
;TYPE:External perimeter
;WIDTH:0.45
G1 F3600
G1 X139.062 Y110.938 E0.37022
G1 X139.062 Y89.062 E0.74044
G1 X149.613 Y89.062 E0.35711
G1 X149.613 Y89.613 E0.01862
G1 X139.613 Y89.613 E0.33849
G1 X139.613 Y110.387 E0.70321
G1 X160.387 Y110.387 E0.70321
G1 X160.387 Y89.613 E0.70321
G1 X155.062 Y89.613 E0.18024
G1 X155.062 Y89.062 E0.01862
G1 X160.938 Y89.062 E0.19886
G1 X160.938 Y110.938 E0.74044
G1 X150.06 Y110.938 E0.36819
;WIPE_START
G1 X149.8 Y110.591 F21000
;WIPE_END
G1 X160.407 Y110.407
G1 X160.407 Y89.593
G1 X155.25 Y89.338
;TYPE:Gap fill
;WIDTH:0.218244
G1 F2400
G1 X157.956 Y89.338 E0.03945
G1 X160.575 Y89.338 E0.03818
;WIDTH:0.270678
G1 X160.662 Y89.425 E0.00235
;WIDTH:0.218244
G1 X160.662 Y110.575 E0.30833
;WIDTH:0.270677
G1 X160.575 Y110.662 E0.00235
;WIDTH:0.218242
G1 X139.425 Y110.662 E0.30832
;WIDTH:0.270678
G1 X139.338 Y110.575 E0.00235
;WIDTH:0.218244
G1 X139.338 Y89.425 E0.30833
;WIDTH:0.270679
G1 X139.425 Y89.338 E0.00235
;WIDTH:0.218242
G1 X149.425 Y89.338 E0.14578
; INIT stop printing object lightBox5_withSupports_taper.stl id:0 copy 0
;LAYER_CHANGE
;Z:0.4875
;HEIGHT:0.0875
; stop printing object lightBox5_withSupports_taper.stl id:0 copy 0
M486 S-1
G1 Z0.4875 F21000
; INIT printing object lightBox5_withSupports_taper.stl id:0 copy 0
G1 E-0.8 F6000
G1 Z1.0875 F21000
; printing object lightBox5_withSupports_taper.stl id:0 copy 0
M486 S0
G1 X157.12 Y86.172
G1 Z0.4875
G1 E0.8 F6000
;TYPE:Support material
;WIDTH:0.5
;HEIGHT:0.2875
G1 F1654
G1 X146.534 Y86.172 E0.5546
G1 X146.534 Y88.118 E0.10197
G1 X150.135 Y88.118 E0.18869
G1 X150.557 Y88.54 E0.03122
G1 X150.557 Y89.629 E0.05707
G1 X154.118 Y89.629 E0.18657
G1 X154.118 Y90.135 E0.02655
G1 X154.54 Y90.557 E0.03122
G1 X159.443 Y90.557 E0.2569
G1 X159.443 Y93.086 E0.13249
G1 X140.557 Y93.086 E0.98944
G1 X140.557 Y96.543 E0.18112
G1 X159.443 Y96.543 E0.98944
G1 X159.443 Y100 E0.18112
G1 X140.557 Y100 E0.98944
G1 X140.557 Y103.457 E0.18112
G1 X154.416 Y103.457 E0.72609
M106 S255
G1 X159.443 Y103.457 E0.26335
G1 X159.443 Y106.914 E0.18112
G1 X140.36 Y106.914 E0.99974
; INIT stop printing object lightBox5_withSupports_taper.stl id:0 copy 0
;LAYER_CHANGE
;Z:0.6
;HEIGHT:0.1125
; stop printing object lightBox5_withSupports_taper.stl id:0 copy 0
M486 S-1
G1 Z0.6 F21000
; INIT printing object lightBox5_withSupports_taper.stl id:0 copy 0
G1 E-0.8 F6000
G1 Z1.2 F21000
; printing object lightBox5_withSupports_taper.stl id:0 copy 0
M486 S0
G1 X150 Y110.938
G1 Z0.6
G1 E0.8 F6000
;TYPE:External perimeter
;WIDTH:0.45
;HEIGHT:0.2
G1 F1939
G1 X139.062 Y110.938 E0.37022
G1 X139.062 Y89.062 E0.74044
G1 X149.613 Y89.062 E0.35711
G1 X149.613 Y89.613 E0.01862
G1 X139.613 Y89.613 E0.33849
G1 X139.613 Y110.387 E0.70321
G1 X160.387 Y110.387 E0.70321
G1 X160.387 Y89.613 E0.70321
G1 X155.062 Y89.613 E0.18024
G1 X155.062 Y89.062 E0.01862
G1 X160.938 Y89.062 E0.19886
G1 X160.938 Y110.938 E0.74044
G1 X150.06 Y110.938 E0.36819
;WIPE_START
G1 X149.8 Y110.591 F21000
;WIPE_END
G1 X160.407 Y110.407
G1 X160.407 Y89.593
G1 X155.25 Y89.338
;TYPE:Gap fill
;WIDTH:0.218244
G1 F1939
G1 X157.956 Y89.338 E0.03945
G1 X160.575 Y89.338 E0.03818
;WIDTH:0.270678

G1 X160.662 Y89.425 E0.00235
;WIDTH:0.218244

G1 X160.662 Y110.575 E0.30833
;WIDTH:0.270677

G1 X160.575 Y110.662 E0.00235
;WIDTH:0.218242

G1 X139.425 Y110.662 E0.30832
;WIDTH:0.270678

G1 X139.338 Y110.575 E0.00235
;WIDTH:0.218244

G1 X139.338 Y89.425 E0.30833
;WIDTH:0.270679

G1 X139.425 Y89.338 E0.00235
;WIDTH:0.218242

G1 X149.425 Y89.338 E0.14578
; INIT stop printing object lightBox5_withSupports_taper.stl id:0 copy 0
;LAYER_CHANGE
;Z:0.775
;HEIGHT:0.175
; stop printing object lightBox5_withSupports_taper.stl id:0 copy 0
M486 S-1
G1 Z0.775 F21000
; INIT printing object lightBox5_withSupports_taper.stl id:0 copy 0
G1 E-0.8 F6000
G1 Z1.375 F21000
; printing object lightBox5_withSupports_taper.stl id:0 copy 0
M486 S0
G1 X157.12 Y86.172
G1 Z0.775
G1 E0.8 F6000
;TYPE:Support material
;WIDTH:0.5
;HEIGHT:0.2875
G1 F1636
G1 X146.534 Y86.172 E0.5546
G1 X146.534 Y88.118 E0.10197
G1 X150.135 Y88.118 E0.18869
G1 X150.557 Y88.54 E0.03122
G1 X150.557 Y89.629 E0.05707
G1 X154.118 Y89.629 E0.18657
G1 X154.118 Y90.135 E0.02655
G1 X154.54 Y90.557 E0.03122
G1 X159.443 Y90.557 E0.2569
G1 X159.443 Y93.086 E0.13249
G1 X140.557 Y93.086 E0.98944
G1 X140.557 Y96.543 E0.18112
G1 X159.443 Y96.543 E0.98944
G1 X159.443 Y100 E0.18112
G1 X140.557 Y100 E0.98944
G1 X140.557 Y103.457 E0.18112
G1 X159.443 Y103.457 E0.98944
G1 X159.443 Y106.914 E0.18112
G1 X140.36 Y106.914 E0.99974
