; generated by SuperSlicer 2.3.57 on 2022-03-28 at 23:11:52 UTC

; 

; external perimeters extrusion width = 0.45mm
; perimeters extrusion width = 0.45mm
; infill extrusion width = 0.45mm
; solid infill extrusion width = 0.45mm
; top infill extrusion width = 0.45mm
; support material extrusion width = 0.50mm
; first layer extrusion width = 0.42mm

; object:{"name":"mount","id":"mount.stl id:0 copy 0","object_center":[150.000000,100.000000,0.000000],"boundingbox_center":[150.000000,100.000000,5.000000],"boundingbox_size":[59.380951,19.380949,10.000000]}
; Total objects to print: 1
M486 T1
; plater:{"center":[150.000000,100.000000,0.000000],"boundingbox_center":[150.000000,100.000000,5.000000],"boundingbox_size":[59.380951,19.380949,10.000000]}

;TYPE:Custom
; custom gcode: start_gcode
G29 S1 
T1 ;manually get the tool
M83 ;extruder in relative mode
M190 S60 ; wait for bed temp
M109 S215 ; wait for extruder temp
G1 X10Y10Z0.2 F1000.0 ; go to some safe location
G92 E0.0
G1 X60.0 E9.0  F1000.0 ; intro line
G1 X100.0 E12.5 F1000.0 ; intro line
G92 E0.0
; custom gcode end: start_gcode
G21 ; set units to millimeters
G90 ; use absolute coordinates
M83 ; use relative distances for extrusion
; custom gcode: start_filament_gcode
; Filament gcode
; custom gcode end: start_filament_gcode
;LAYER_CHANGE
;Z:0.2
;HEIGHT:0.2
G1 Z0.2 F21000
G1 E-0.8 F6000
M204 P3500
G1 Z0.8 F21000
G1 X117.975 Y91.336
G1 Z0.2
G1 E0.8 F6000
;TYPE:Skirt
;WIDTH:0.42
G1 F900
G1 X117.146 Y92.621 E0.07191
G1 X116.464 Y93.963 E0.07082
G1 X115.91 Y95.401 E0.07246
G1 X115.543 Y96.738 E0.06523
G1 X115.34 Y97.821 E0.05183
G1 X115.193 Y99.356 E0.07249
G1 X115.199 Y100.794 E0.06766
G1 X115.361 Y102.319 E0.07212
G1 X115.677 Y103.814 E0.07185
G1 X116.138 Y105.246 E0.07076
G1 X116.877 Y106.888 E0.0847
G1 X117.988 Y108.683 E0.09925
G1 X119.111 Y110.054 E0.08335
G1 X120.697 Y111.539 E0.1022
G1 X122.431 Y112.742 E0.09927
G1 X124.011 Y113.558 E0.0836
G1 X125.986 Y114.266 E0.09871
G1 X127.758 Y114.651 E0.08526
G1 X129.977 Y114.822 E0.10467
G1 X170.093 Y114.821 E1.88671
G1 X171.533 Y114.742 E0.06783
G1 X172.933 Y114.528 E0.06665
G1 X173.991 Y114.273 E0.05115
G1 X175.246 Y113.862 E0.06212
G1 X176.199 Y113.462 E0.04864
G1 X177.41 Y112.836 E0.06408
G1 X178.597 Y112.073 E0.06637
G1 X179.467 Y111.403 E0.05167
G1 X180.51 Y110.45 E0.06643
G1 X181.424 Y109.442 E0.06401
G1 X182.082 Y108.583 E0.05086
G1 X182.86 Y107.369 E0.0678
G1 X183.473 Y106.175 E0.06317
G1 X183.892 Y105.164 E0.05143
G1 X184.323 Y103.813 E0.06671
G1 X184.624 Y102.409 E0.06753
G1 X184.753 Y101.417 E0.04706
G1 X184.822 Y99.977 E0.06777
G1 X184.751 Y98.554 E0.06701
G1 X184.605 Y97.484 E0.05081
G1 X184.317 Y96.164 E0.06355
G1 X183.882 Y94.809 E0.06692
G1 X183.469 Y93.816 E0.05055
G1 X182.845 Y92.605 E0.06409
G1 X182.076 Y91.408 E0.06692
G1 X181.418 Y90.55 E0.05085
G1 X180.454 Y89.494 E0.06725
G1 X179.446 Y88.579 E0.06401
G1 X178.593 Y87.924 E0.05059
G1 X177.395 Y87.155 E0.06698
G1 X176.18 Y86.529 E0.06426
G1 X175.186 Y86.116 E0.05061
G1 X173.836 Y85.683 E0.06671
G1 X172.507 Y85.393 E0.06397
G1 X171.44 Y85.249 E0.05062
G1 X170.006 Y85.178 E0.06753
G1 X129.884 Y85.179 E1.88698
G1 X128.462 Y85.258 E0.06701
G1 X127.061 Y85.473 E0.06665
G1 X126.004 Y85.728 E0.05115
G1 X124.754 Y86.138 E0.06185
G1 X123.329 Y86.765 E0.07322
G1 X122.056 Y87.488 E0.06884
G1 X120.806 Y88.376 E0.07212
G1 X119.959 Y89.099 E0.05238
G1 X118.935 Y90.139 E0.06863
G1 X118.012 Y91.289 E0.06936
G1 X118.306 Y91.524 F21000
G1 F900
G1 X118.283 Y91.552 E0.00169
G1 X117.475 Y92.805 E0.07009
G1 X116.812 Y94.108 E0.06876
G1 X116.268 Y95.519 E0.07114
G1 X115.912 Y96.818 E0.06337
G1 X115.715 Y97.865 E0.0501
G1 X115.57 Y99.36 E0.07064
G1 X115.576 Y100.769 E0.06627
G1 X115.733 Y102.256 E0.07032
G1 X116.039 Y103.708 E0.06979
G1 X116.478 Y105.079 E0.06768
G1 X117.204 Y106.699 E0.0835
G1 X118.289 Y108.456 E0.09713
G1 X119.384 Y109.794 E0.08133
G1 X120.931 Y111.242 E0.09965
G1 X122.63 Y112.422 E0.09727
G1 X124.159 Y113.211 E0.08092
G1 X126.091 Y113.904 E0.09653
G1 X127.821 Y114.279 E0.08325
G1 X129.983 Y114.445 E0.102
G1 X170.085 Y114.444 E1.88603
G1 X171.422 Y114.374 E0.06301
G1 X172.453 Y114.233 E0.04894
G1 X173.741 Y113.952 E0.06198
G1 X175.079 Y113.522 E0.06609
G1 X176.027 Y113.126 E0.04835
G1 X177.21 Y112.517 E0.06256
G1 X178.378 Y111.766 E0.0653
G1 X179.218 Y111.119 E0.04989
G1 X180.244 Y110.183 E0.06532
G1 X181.138 Y109.197 E0.06259
G1 X181.772 Y108.369 E0.04903
G1 X182.53 Y107.186 E0.06612
G1 X183.131 Y106.016 E0.06185
G1 X183.537 Y105.038 E0.04977
G1 X183.959 Y103.715 E0.06533
G1 X184.252 Y102.346 E0.06585
G1 X184.378 Y101.381 E0.04577
G1 X184.445 Y99.983 E0.06582
G1 X184.375 Y98.589 E0.06565
G1 X184.235 Y97.558 E0.04894
G1 X183.953 Y96.265 E0.06224
G1 X183.53 Y94.943 E0.0653
G1 X183.128 Y93.978 E0.04915
G1 X182.519 Y92.795 E0.06256
G1 X181.766 Y91.622 E0.06556
G1 X181.13 Y90.795 E0.04909
G1 X180.188 Y89.76 E0.06582
G1 X179.201 Y88.866 E0.06263
G1 X178.374 Y88.231 E0.04903
G1 X177.205 Y87.481 E0.06533
G1 X176.021 Y86.871 E0.06264
G1 X175.06 Y86.471 E0.04898
G1 X173.737 Y86.047 E0.06533
G1 X172.44 Y85.764 E0.06243
G1 X171.409 Y85.625 E0.04892
G1 X170.006 Y85.555 E0.06608
G1 X129.893 Y85.556 E1.88656
G1 X128.499 Y85.633 E0.06565
G1 X127.14 Y85.842 E0.06469
G1 X126.115 Y86.089 E0.04957
G1 X124.921 Y86.478 E0.05904
G1 X123.5 Y87.1 E0.07296
G1 X122.264 Y87.803 E0.06688
G1 X121.365 Y88.422 E0.05132
G1 X120.222 Y89.369 E0.06982
G1 X119.22 Y90.386 E0.06718
G1 X118.343 Y91.478 E0.06583
; INIT printing object mount.stl id:0 copy 0
;WIPE_START
G1 F16800
G1 X118.283 Y91.552 E-0.03257
G1 X117.475 Y92.805 E-0.5056
G1 X117.179 Y93.387 E-0.22184
;WIPE_END
G1 E-0.04 F6000
G1 Z0.8 F21000
; printing object mount.stl id:0 copy 0
M486 S0
G1 X167.815 Y99.631
G1 Z0.2
G1 E0.8 F6000
;TYPE:Internal perimeter
G1 F573.80856
G1 X167.791 Y99.868 E0.01119
G1 X167.785 Y99.94 E0.00342
G1 X167.794 Y100.178 E0.01119
G1 X167.799 Y100.25 E0.00342
G1 X167.84 Y100.485 E0.0112
G1 X167.856 Y100.556 E0.00342
G1 X167.929 Y100.782 E0.0112
G1 X167.955 Y100.85 E0.00342
G1 X168.059 Y101.064 E0.0112
G1 X168.094 Y101.128 E0.00342
G1 X168.227 Y101.326 E0.0112
G1 X168.271 Y101.384 E0.00342
G1 X168.43 Y101.561 E0.01119
G1 X168.481 Y101.612 E0.00342
G1 X168.664 Y101.765 E0.0112
G1 X168.722 Y101.809 E0.00342
G1 X168.924 Y101.935 E0.01119
G1 X168.987 Y101.97 E0.00342
G1 X169.205 Y102.066 E0.01119
G1 X169.273 Y102.092 E0.00342
G1 X169.502 Y102.157 E0.0112
G1 X169.573 Y102.173 E0.00342
G1 X169.809 Y102.206 E0.0112
G1 X169.881 Y102.211 E0.00342
G1 X170.119 Y102.211 E0.01119
G1 X170.191 Y102.206 E0.00342
G1 X170.427 Y102.173 E0.0112
G1 X170.498 Y102.157 E0.00342
G1 X170.727 Y102.092 E0.0112
G1 X170.795 Y102.066 E0.00342
G1 X171.013 Y101.97 E0.01119
G1 X171.076 Y101.935 E0.00342
G1 X171.278 Y101.809 E0.01119
G1 X171.336 Y101.765 E0.00342
G1 X171.519 Y101.612 E0.0112
G1 X171.57 Y101.561 E0.00342
G1 X171.729 Y101.384 E0.01119
G1 X171.773 Y101.326 E0.00342
G1 X171.906 Y101.128 E0.0112
G1 X171.941 Y101.064 E0.00342
G1 X172.045 Y100.85 E0.0112
G1 X172.071 Y100.782 E0.00342
G1 X172.144 Y100.556 E0.0112
G1 X172.16 Y100.485 E0.00342
G1 X172.201 Y100.25 E0.0112
G1 X172.206 Y100.178 E0.00342
G1 X172.215 Y99.94 E0.01119
G1 X172.209 Y99.868 E0.00342
G1 X172.185 Y99.631 E0.01119
G1 X172.169 Y99.56 E0.00342
G1 X172.112 Y99.329 E0.0112
G1 X172.086 Y99.261 E0.00342
G1 X171.997 Y99.04 E0.0112
G1 X171.962 Y98.976 E0.00342
G1 X171.843 Y98.77 E0.01119
G1 X171.799 Y98.712 E0.00342
G1 X171.648 Y98.518 E0.01159
G1 X171.426 Y98.303 E0.01454
G1 X171.175 Y98.121 E0.01455
G1 X170.902 Y97.975 E0.01455
G1 X170.611 Y97.869 E0.01455
G1 X170.309 Y97.805 E0.01455
G1 X170 Y97.783 E0.01455
G1 X169.691 Y97.805 E0.01455
G1 X169.389 Y97.869 E0.01455
G1 X169.098 Y97.975 E0.01455
G1 X168.825 Y98.121 E0.01455
G1 X168.574 Y98.303 E0.01455
G1 X168.352 Y98.518 E0.01454
G1 X168.201 Y98.712 E0.01159
G1 X168.157 Y98.77 E0.00342
G1 X168.038 Y98.976 E0.01119
G1 X168.003 Y99.04 E0.00342
G1 X167.914 Y99.261 E0.0112
G1 X167.888 Y99.329 E0.00342
G1 X167.828 Y99.572 E0.01179
G1 X168.197 Y99.652 F21000
G1 F446.76831
G1 X168.188 Y99.691 E0.00185
G1 X168.166 Y99.901 E0.00993
G1 X168.163 Y99.947 E0.00218
G1 X168.17 Y100.158 E0.00993
G1 X168.174 Y100.204 E0.00218
G1 X168.21 Y100.412 E0.00993
G1 X168.22 Y100.457 E0.00218
G1 X168.285 Y100.658 E0.00993
G1 X168.302 Y100.702 E0.00218
G1 X168.394 Y100.891 E0.00993
G1 X168.416 Y100.932 E0.00218
G1 X168.534 Y101.107 E0.00993
G1 X168.562 Y101.144 E0.00218
G1 X168.703 Y101.301 E0.00993
G1 X168.736 Y101.334 E0.00218
G1 X168.898 Y101.469 E0.00993
G1 X168.935 Y101.497 E0.00218
G1 X169.114 Y101.609 E0.00993
G1 X169.155 Y101.631 E0.00218
G1 X169.348 Y101.717 E0.00993
G1 X169.391 Y101.733 E0.00218
G1 X169.594 Y101.792 E0.00993
G1 X169.639 Y101.801 E0.00218
G1 X169.848 Y101.831 E0.00993
G1 X169.894 Y101.834 E0.00218
G1 X170.106 Y101.834 E0.00992
G1 X170.152 Y101.831 E0.00218
G1 X170.361 Y101.801 E0.00993
G1 X170.406 Y101.792 E0.00218
G1 X170.609 Y101.733 E0.00993
G1 X170.652 Y101.717 E0.00218
G1 X170.845 Y101.631 E0.00993
G1 X170.886 Y101.609 E0.00218
G1 X171.065 Y101.497 E0.00993
G1 X171.102 Y101.469 E0.00218
G1 X171.264 Y101.334 E0.00993
G1 X171.297 Y101.301 E0.00218
G1 X171.438 Y101.144 E0.00993
G1 X171.466 Y101.107 E0.00218
G1 X171.584 Y100.932 E0.00993
G1 X171.606 Y100.891 E0.00218
G1 X171.698 Y100.702 E0.00993
G1 X171.715 Y100.658 E0.00218
G1 X171.78 Y100.457 E0.00993
G1 X171.79 Y100.412 E0.00218
G1 X171.826 Y100.204 E0.00993
G1 X171.83 Y100.158 E0.00218
G1 X171.837 Y99.947 E0.00993
G1 X171.834 Y99.901 E0.00218
G1 X171.812 Y99.691 E0.00993
G1 X171.802 Y99.645 E0.00218
G1 X171.751 Y99.441 E0.00993
G1 X171.735 Y99.397 E0.00218
G1 X171.655 Y99.201 E0.00993
G1 X171.633 Y99.161 E0.00218
G1 X171.528 Y98.978 E0.00993
G1 X171.5 Y98.941 E0.00218
G1 X171.367 Y98.77 E0.01017
G1 X171.182 Y98.592 E0.01206
G1 X170.975 Y98.441 E0.01207
G1 X170.748 Y98.321 E0.01207
G1 X170.507 Y98.233 E0.01207
G1 X170.256 Y98.179 E0.01207
G1 X170 Y98.161 E0.01207
G1 X169.744 Y98.179 E0.01207
G1 X169.493 Y98.233 E0.01207
G1 X169.252 Y98.321 E0.01207
G1 X169.025 Y98.441 E0.01207
G1 X168.818 Y98.592 E0.01207
G1 X168.633 Y98.77 E0.01206
G1 X168.5 Y98.941 E0.01017
G1 X168.472 Y98.978 E0.00218
G1 X168.367 Y99.161 E0.00993
G1 X168.345 Y99.201 E0.00218
G1 X168.265 Y99.397 E0.00993
G1 X168.249 Y99.441 E0.00218
G1 X168.211 Y99.594 E0.00744
;WIPE_START
G1 F16800
G1 X168.188 Y99.691 E-0.0337
G1 X168.166 Y99.901 E-0.07162
G1 X168.163 Y99.947 E-0.01573
G1 X168.17 Y100.158 E-0.07162
G1 X168.174 Y100.204 E-0.01573
G1 X168.21 Y100.412 E-0.07163
G1 X168.22 Y100.457 E-0.01573
G1 X168.285 Y100.658 E-0.07163
G1 X168.302 Y100.702 E-0.01573
G1 X168.394 Y100.891 E-0.07162
G1 X168.416 Y100.932 E-0.01573
G1 X168.534 Y101.107 E-0.07164
G1 X168.562 Y101.144 E-0.01573
G1 X168.703 Y101.301 E-0.07161
G1 X168.736 Y101.334 E-0.01573
G1 X168.898 Y101.469 E-0.07163
G1 X168.935 Y101.497 E-0.01573
G1 X169.004 Y101.54 E-0.02747
;WIPE_END
G1 E-0.04 F6000
G1 Z0.8 F21000
G1 X170.698 Y101.282
G1 Z0.2
G1 E0.8 F6000
;TYPE:External perimeter
G1 F319.72805
G1 X170.852 Y101.186 E0.00852
G1 X170.868 Y101.174 E0.00094
G1 X171.009 Y101.056 E0.00866
G1 X171.023 Y101.041 E0.00094
G1 X171.146 Y100.905 E0.00866
G1 X171.158 Y100.888 E0.00094
G1 X171.261 Y100.736 E0.00866
G1 X171.271 Y100.718 E0.00094
G1 X171.352 Y100.553 E0.00866
G1 X171.359 Y100.534 E0.00094
G1 X171.415 Y100.359 E0.00866
G1 X171.42 Y100.339 E0.00094
G1 X171.452 Y100.158 E0.00866
G1 X171.453 Y100.138 E0.00094
G1 X171.46 Y99.954 E0.00866
G1 X171.458 Y99.934 E0.00094
G1 X171.439 Y99.751 E0.00866
G1 X171.435 Y99.731 E0.00094
G1 X171.39 Y99.552 E0.00866
G1 X171.383 Y99.534 E0.00094
G1 X171.314 Y99.363 E0.00866
G1 X171.304 Y99.345 E0.00094
G1 X171.212 Y99.186 E0.00866
G1 X171.2 Y99.17 E0.00094
G1 X171.086 Y99.023 E0.00875
G1 X170.939 Y98.882 E0.00959
G1 X170.774 Y98.762 E0.00959
G1 X170.594 Y98.666 E0.00959
G1 X170.403 Y98.596 E0.00959
G1 X170.203 Y98.554 E0.00959
G1 X170 Y98.539 E0.00959
G1 X169.797 Y98.554 E0.00959
G1 X169.597 Y98.596 E0.00959
G1 X169.406 Y98.666 E0.00959
G1 X169.226 Y98.762 E0.00959
G1 X169.061 Y98.882 E0.00959
G1 X168.914 Y99.023 E0.00959
G1 X168.8 Y99.17 E0.00875
G1 X168.788 Y99.186 E0.00094
G1 X168.696 Y99.345 E0.00866
G1 X168.686 Y99.363 E0.00094
G1 X168.617 Y99.534 E0.00866
G1 X168.61 Y99.552 E0.00094
G1 X168.565 Y99.731 E0.00866
G1 X168.561 Y99.751 E0.00094
G1 X168.542 Y99.934 E0.00866
G1 X168.54 Y99.954 E0.00094
G1 X168.547 Y100.138 E0.00866
G1 X168.548 Y100.158 E0.00094
G1 X168.58 Y100.339 E0.00866
G1 X168.585 Y100.359 E0.00094
G1 X168.641 Y100.534 E0.00866
G1 X168.648 Y100.553 E0.00094
G1 X168.729 Y100.718 E0.00866
G1 X168.739 Y100.736 E0.00094
G1 X168.842 Y100.888 E0.00866
G1 X168.854 Y100.905 E0.00094
G1 X168.977 Y101.041 E0.00866
G1 X168.991 Y101.056 E0.00094
G1 X169.132 Y101.174 E0.00866
G1 X169.148 Y101.186 E0.00094
G1 X169.304 Y101.283 E0.00866
G1 X169.322 Y101.293 E0.00094
G1 X169.49 Y101.368 E0.00866
G1 X169.509 Y101.375 E0.00094
G1 X169.686 Y101.426 E0.00866
G1 X169.706 Y101.43 E0.00094
G1 X169.888 Y101.456 E0.00866
G1 X169.908 Y101.457 E0.00094
G1 X170.092 Y101.457 E0.00866
G1 X170.112 Y101.456 E0.00094
G1 X170.294 Y101.43 E0.00866
G1 X170.314 Y101.426 E0.00094
G1 X170.491 Y101.375 E0.00866
G1 X170.51 Y101.368 E0.00094
G1 X170.644 Y101.308 E0.00693
;WIPE_START
G1 X170.854 Y101.374 F21000
;WIPE_END
G1 X132.212 Y100.024
;TYPE:Internal perimeter
G1 F573.80856
G1 X132.215 Y99.94 E0.00396
G1 X132.209 Y99.868 E0.00342
G1 X132.185 Y99.631 E0.01119
G1 X132.169 Y99.56 E0.00342
G1 X132.112 Y99.329 E0.01119
G1 X132.086 Y99.261 E0.00342
G1 X131.997 Y99.04 E0.0112
G1 X131.962 Y98.976 E0.00342
G1 X131.843 Y98.77 E0.01119
G1 X131.799 Y98.712 E0.00342
G1 X131.648 Y98.518 E0.01159
G1 X131.426 Y98.303 E0.01454
G1 X131.175 Y98.121 E0.01455
G1 X130.902 Y97.975 E0.01455
G1 X130.611 Y97.869 E0.01455
G1 X130.309 Y97.805 E0.01455
G1 X130 Y97.783 E0.01455
G1 X129.691 Y97.805 E0.01455
G1 X129.389 Y97.869 E0.01455
G1 X129.098 Y97.975 E0.01455
G1 X128.825 Y98.121 E0.01455
G1 X128.574 Y98.303 E0.01455
G1 X128.352 Y98.518 E0.01454
G1 X128.201 Y98.712 E0.01159
G1 X128.157 Y98.77 E0.00342
G1 X128.038 Y98.976 E0.01119
G1 X128.003 Y99.04 E0.00342
G1 X127.914 Y99.261 E0.0112
G1 X127.888 Y99.329 E0.00342
G1 X127.831 Y99.56 E0.0112
G1 X127.815 Y99.631 E0.00342
G1 X127.791 Y99.868 E0.01119
G1 X127.785 Y99.94 E0.00342
G1 X127.794 Y100.178 E0.01119
G1 X127.799 Y100.25 E0.00342
G1 X127.84 Y100.485 E0.0112
G1 X127.856 Y100.556 E0.00342
G1 X127.929 Y100.782 E0.0112
G1 X127.955 Y100.85 E0.00342
G1 X128.059 Y101.064 E0.0112
G1 X128.094 Y101.128 E0.00342
G1 X128.227 Y101.326 E0.0112
G1 X128.271 Y101.384 E0.00342
G1 X128.43 Y101.561 E0.01119
G1 X128.481 Y101.612 E0.00342
G1 X128.664 Y101.765 E0.0112
G1 X128.722 Y101.809 E0.00342
G1 X128.924 Y101.935 E0.0112
G1 X128.987 Y101.97 E0.00342
G1 X129.205 Y102.066 E0.01119
G1 X129.273 Y102.092 E0.00342
G1 X129.502 Y102.157 E0.0112
G1 X129.573 Y102.173 E0.00342
G1 X129.809 Y102.206 E0.0112
G1 X129.881 Y102.211 E0.00342
G1 X130.119 Y102.211 E0.01119
G1 X130.191 Y102.206 E0.00342
G1 X130.427 Y102.173 E0.0112
G1 X130.498 Y102.157 E0.00342
G1 X130.727 Y102.092 E0.0112
G1 X130.795 Y102.066 E0.00342
G1 X131.013 Y101.97 E0.01119
G1 X131.076 Y101.935 E0.00342
G1 X131.278 Y101.809 E0.0112
G1 X131.336 Y101.765 E0.00342
G1 X131.519 Y101.612 E0.0112
G1 X131.57 Y101.561 E0.00342
G1 X131.729 Y101.384 E0.01119
G1 X131.773 Y101.326 E0.00342
G1 X131.906 Y101.128 E0.0112
G1 X131.941 Y101.064 E0.00342
G1 X132.045 Y100.85 E0.0112
G1 X132.071 Y100.782 E0.00342
G1 X132.144 Y100.556 E0.0112
G1 X132.16 Y100.485 E0.00342
G1 X132.201 Y100.25 E0.0112
G1 X132.206 Y100.178 E0.00342
G1 X132.21 Y100.084 E0.00441
G1 X131.833 Y100.071 F21000
G1 F446.76831
G1 X131.837 Y99.947 E0.00584
G1 X131.834 Y99.901 E0.00218
G1 X131.812 Y99.691 E0.00993
G1 X131.802 Y99.645 E0.00218
G1 X131.751 Y99.441 E0.00993
G1 X131.735 Y99.397 E0.00218
G1 X131.655 Y99.201 E0.00993
G1 X131.633 Y99.161 E0.00218
G1 X131.528 Y98.978 E0.00993
G1 X131.5 Y98.941 E0.00218
G1 X131.367 Y98.77 E0.01017
G1 X131.182 Y98.592 E0.01206
G1 X130.975 Y98.441 E0.01207
