; generated by SuperSlicer 2.3.57 on 2022-03-18 at 19:06:02 UTC

; 

; external perimeters extrusion width = 0.45mm
; perimeters extrusion width = 0.45mm
; infill extrusion width = 0.45mm
; solid infill extrusion width = 0.45mm
; top infill extrusion width = 0.45mm
; first layer extrusion width = 0.42mm

; object:{"name":"xyzCalibration_cube","id":"xyzCalibration_cube.stl id:0 copy 0","object_center":[150.000000,100.000000,0.000000],"boundingbox_center":[150.000000,100.000000,10.000000],"boundingbox_size":[20.000000,20.000000,20.000000]}
; plater:{"center":[150.000000,100.000000,0.000000],"boundingbox_center":[150.000000,100.000000,10.000000],"boundingbox_size":[20.000000,20.000000,20.000000]}

M140 S60 ; set bed temperature
;TYPE:Custom
; custom gcode: start_gcode
G29 S1
T1 ;manually get the tool
; custom gcode end: start_gcode
G21 ; set units to millimeters
G90 ; use absolute coordinates
M83 ; use relative distances for extrusion
; custom gcode: start_filament_gcode
; Filament gcode
; custom gcode end: start_filament_gcode
M109 S210 ; set temperature and wait for it to be reached
M190 S60 ; set bed temperature and wait for it to be reached
;LAYER_CHANGE
;Z:0.2
;HEIGHT:0.2
G1 Z0.2 F21000
G1 E-0.8 F6000
M204 P3500
G1 Z0.8 F21000
G1 X134.798 Y87.126
G1 Z0.2
G1 E0.8 F6000
;TYPE:Skirt
;WIDTH:0.42
G1 F1800
G1 X134.425 Y87.942 E0.02811
G1 X134.179 Y88.804 E0.02811
G1 X134.065 Y89.693 E0.02811
G1 X134.062 Y110.229 E0.64388
G1 X134.253 Y111.513 E0.04071
G1 X134.719 Y112.725 E0.04071
G1 X135.436 Y113.806 E0.04071
G1 X136.372 Y114.707 E0.04071
G1 X137.126 Y115.202 E0.0283
G1 X137.942 Y115.575 E0.02811
G1 X138.804 Y115.821 E0.02811
G1 X139.693 Y115.935 E0.02811
G1 X160.229 Y115.938 E0.64388
G1 X161.513 Y115.747 E0.04071
G1 X162.725 Y115.281 E0.04071
G1 X163.806 Y114.564 E0.04071
G1 X164.707 Y113.628 E0.04071
G1 X165.202 Y112.874 E0.0283
G1 X165.577 Y112.053 E0.0283
G1 X165.823 Y111.184 E0.0283
G1 X165.936 Y110.283 E0.02849
G1 X165.943 Y89.982 E0.63652
G1 X165.869 Y89.065 E0.02886
G1 X165.614 Y88.05 E0.03281
G1 X165.184 Y87.095 E0.03281
G1 X164.594 Y86.231 E0.03281
G1 X163.857 Y85.479 E0.033
G1 X163.004 Y84.873 E0.03281
G1 X162.058 Y84.425 E0.03281
G1 X161.048 Y84.151 E0.03281
G1 X160.006 Y84.057 E0.03281
G1 X139.447 Y84.083 E0.64462
G1 X138.256 Y84.319 E0.03808
G1 X137.132 Y84.795 E0.03827
G1 X136.134 Y85.487 E0.03808
G1 X135.293 Y86.372 E0.03827
G1 X134.831 Y87.076 E0.02642
G1 X135.143 Y87.283 F21000
G1 F1800
G1 X134.785 Y88.054 E0.02665
G1 X134.549 Y88.877 E0.02684
G1 X134.441 Y89.72 E0.02665
G1 X134.438 Y110.192 E0.64188
G1 X134.611 Y111.39 E0.03794
G1 X135.038 Y112.521 E0.03794
G1 X135.704 Y113.539 E0.03812
G1 X136.57 Y114.383 E0.03794
G1 X137.283 Y114.857 E0.02684
G1 X138.054 Y115.215 E0.02665
G1 X138.877 Y115.451 E0.02684
G1 X139.72 Y115.559 E0.02665
G1 X160.192 Y115.562 E0.64188
G1 X161.39 Y115.389 E0.03794
G1 X162.521 Y114.962 E0.03794
G1 X163.539 Y114.296 E0.03812
G1 X164.383 Y113.43 E0.03794
G1 X164.857 Y112.717 E0.02684
G1 X165.219 Y111.935 E0.02702
G1 X165.455 Y111.106 E0.02702
G1 X165.56 Y110.256 E0.02684
G1 X165.566 Y89.983 E0.63567
G1 X165.503 Y89.17 E0.02556
G1 X165.271 Y88.214 E0.03084
G1 X164.872 Y87.309 E0.03103
G1 X164.322 Y86.493 E0.03084
G1 X163.632 Y85.783 E0.03103
G1 X162.833 Y85.209 E0.03084
G1 X161.94 Y84.783 E0.03103
G1 X160.991 Y84.523 E0.03084
G1 X160.006 Y84.434 E0.03103
G1 X139.517 Y84.455 E0.64241
G1 X138.397 Y84.67 E0.03576
G1 X137.344 Y85.109 E0.03576
G1 X136.403 Y85.753 E0.03576
G1 X135.617 Y86.57 E0.03557
G1 X135.176 Y87.233 E0.02496
G1 X135.488 Y87.439 F21000
G1 F1800
G1 X135.144 Y88.172 E0.02538
G1 X134.919 Y88.949 E0.02538
G1 X134.817 Y89.752 E0.02538
G1 X134.814 Y110.159 E0.63984
G1 X134.971 Y111.277 E0.0354
G1 X135.364 Y112.329 E0.03522
G1 X135.974 Y113.273 E0.03522
G1 X136.772 Y114.062 E0.03522
G1 X137.439 Y114.512 E0.02521
G1 X138.172 Y114.856 E0.02538
G1 X138.949 Y115.081 E0.02538
G1 X139.752 Y115.183 E0.02538
G1 X160.159 Y115.186 E0.63984
G1 X161.277 Y115.029 E0.0354
G1 X162.329 Y114.636 E0.03522
G1 X163.273 Y114.026 E0.03522
G1 X164.062 Y113.228 E0.03522
G1 X164.518 Y112.551 E0.02556
G1 X164.86 Y111.818 E0.02538
G1 X165.084 Y111.034 E0.02556
G1 X165.183 Y110.231 E0.02538
G1 X165.189 Y89.987 E0.63472
G1 X165.136 Y89.264 E0.02274
G1 X164.925 Y88.367 E0.0289
G1 X164.555 Y87.516 E0.02907
G1 X164.04 Y86.745 E0.02907
G1 X163.401 Y86.081 E0.0289
G1 X162.649 Y85.539 E0.02907
G1 X161.818 Y85.14 E0.0289
G1 X160.929 Y84.895 E0.0289
G1 X160.006 Y84.811 E0.02907
G1 X139.577 Y84.829 E0.64053
G1 X138.538 Y85.022 E0.03311
G1 X137.556 Y85.423 E0.03329
G1 X136.68 Y86.013 E0.03311
G1 X135.938 Y86.772 E0.03329
G1 X135.521 Y87.389 E0.02333
; INIT printing object xyzCalibration_cube.stl id:0 copy 0
;WIPE_START
G1 F16800
G1 X135.144 Y88.172 E-0.29479
G1 X134.919 Y88.949 E-0.27466
G1 X134.848 Y89.507 E-0.19055
;WIPE_END
G1 E-0.04 F6000
G1 Z0.8 F21000
; printing object xyzCalibration_cube.stl id:0 copy 0
G1 X140.964 Y90.964
G1 Z0.2
G1 E0.8 F6000
;TYPE:Internal perimeter
G1 F1800
G1 X159.036 Y90.964 E0.56663
G1 X159.036 Y109.036 E0.56663
G1 X140.964 Y109.036 E0.56663
G1 X140.964 Y91.024 E0.56474
G1 X140.587 Y90.587 F21000
G1 F1800
G1 X159.413 Y90.587 E0.59027
G1 X159.413 Y109.413 E0.59027
G1 X140.587 Y109.413 E0.59027
G1 X140.587 Y90.647 E0.58839
G1 X140.21 Y90.21 F21000
;TYPE:External perimeter
G1 F1800
G1 X159.79 Y90.21 E0.61392
G1 X159.79 Y109.79 E0.61392
G1 X140.21 Y109.79 E0.61392
G1 X140.21 Y90.27 E0.61204
;WIPE_START
G1 X140.556 Y90.41 F21000
;WIPE_END
G1 X158.923 Y91.84
;TYPE:Solid infill
;WIDTH:0.420831
G1 F2400
G1 X158.323 Y91.239 E0.02666
G1 X157.789 Y91.239 E0.01675
G1 X158.761 Y92.211 E0.04315
G1 X158.761 Y92.744 E0.01675
G1 X157.256 Y91.239 E0.06685
G1 X156.723 Y91.239 E0.01675
G1 X158.761 Y93.277 E0.09054
G1 X158.761 Y93.81 E0.01675
G1 X156.19 Y91.239 E0.11423
G1 X155.656 Y91.239 E0.01675
G1 X158.761 Y94.344 E0.13792
G1 X158.761 Y94.877 E0.01675
G1 X155.123 Y91.239 E0.16162
G1 X154.59 Y91.239 E0.01675
G1 X158.761 Y95.41 E0.18531
G1 X158.761 Y95.944 E0.01675
G1 X154.056 Y91.239 E0.209
G1 X153.523 Y91.239 E0.01675
G1 X158.761 Y96.477 E0.2327
G1 X158.761 Y97.01 E0.01675
G1 X152.99 Y91.239 E0.25639
G1 X152.457 Y91.239 E0.01675
G1 X158.761 Y97.543 E0.28008
G1 X158.761 Y98.077 E0.01675
G1 X151.923 Y91.239 E0.30377
G1 X151.39 Y91.239 E0.01675
G1 X158.761 Y98.61 E0.32747
G1 X158.761 Y99.143 E0.01675
G1 X150.857 Y91.239 E0.35116
G1 X150.324 Y91.239 E0.01675
G1 X158.761 Y99.676 E0.37485
G1 X158.761 Y100.21 E0.01675
G1 X149.79 Y91.239 E0.39855
G1 X149.257 Y91.239 E0.01675
G1 X158.761 Y100.743 E0.42224
G1 X158.761 Y101.276 E0.01675
G1 X148.724 Y91.239 E0.44593
G1 X148.19 Y91.239 E0.01675
G1 X158.761 Y101.81 E0.46962
G1 X158.761 Y102.343 E0.01675
G1 X147.657 Y91.239 E0.49332
G1 X147.124 Y91.239 E0.01675
G1 X158.761 Y102.876 E0.51701
G1 X158.761 Y103.409 E0.01675
G1 X146.591 Y91.239 E0.5407
G1 X146.057 Y91.239 E0.01675
G1 X158.761 Y103.943 E0.5644
G1 X158.761 Y104.476 E0.01675
G1 X145.524 Y91.239 E0.58809
G1 X144.991 Y91.239 E0.01675
G1 X158.761 Y105.009 E0.61178
G1 X158.761 Y105.542 E0.01675
G1 X144.458 Y91.239 E0.63547
G1 X143.924 Y91.239 E0.01675
G1 X158.761 Y106.076 E0.65917
G1 X158.761 Y106.609 E0.01675
G1 X143.391 Y91.239 E0.68286
G1 X142.858 Y91.239 E0.01675
G1 X158.761 Y107.142 E0.70655
G1 X158.761 Y107.675 E0.01675
G1 X142.325 Y91.239 E0.73025
G1 X141.791 Y91.239 E0.01675
G1 X158.761 Y108.209 E0.75394
G1 X158.761 Y108.742 E0.01675
G1 X141.258 Y91.239 E0.77763
G1 X141.239 Y91.239 E0.00058
G1 X141.239 Y91.754 E0.01617
G1 X158.246 Y108.761 E0.75559
G1 X157.713 Y108.761 E0.01675
G1 X141.239 Y92.287 E0.7319
G1 X141.239 Y92.821 E0.01675
G1 X157.179 Y108.761 E0.7082
G1 X156.646 Y108.761 E0.01675
G1 X141.239 Y93.354 E0.68451
G1 X141.239 Y93.887 E0.01675
G1 X156.113 Y108.761 E0.66082
G1 X155.58 Y108.761 E0.01675
G1 X141.239 Y94.42 E0.63712
G1 X141.239 Y94.954 E0.01675
G1 X155.046 Y108.761 E0.61343
G1 X154.513 Y108.761 E0.01675
G1 X141.239 Y95.487 E0.58974
G1 X141.239 Y96.02 E0.01675
G1 X153.98 Y108.761 E0.56605
G1 X153.446 Y108.761 E0.01675
G1 X141.239 Y96.554 E0.54235
G1 X141.239 Y97.087 E0.01675
G1 X152.913 Y108.761 E0.51866
G1 X152.38 Y108.761 E0.01675
G1 X141.239 Y97.62 E0.49497
G1 X141.239 Y98.153 E0.01675
G1 X151.847 Y108.761 E0.47127
G1 X151.313 Y108.761 E0.01675
G1 X141.239 Y98.687 E0.44758
G1 X141.239 Y99.22 E0.01675
G1 X150.78 Y108.761 E0.42389
G1 X150.247 Y108.761 E0.01675
G1 X141.239 Y99.753 E0.4002
G1 X141.239 Y100.286 E0.01675
G1 X149.714 Y108.761 E0.3765
G1 X149.18 Y108.761 E0.01675
G1 X141.239 Y100.82 E0.35281
G1 X141.239 Y101.353 E0.01675
G1 X148.647 Y108.761 E0.32912
G1 X148.114 Y108.761 E0.01675
G1 X141.239 Y101.886 E0.30542
G1 X141.239 Y102.42 E0.01675
G1 X147.58 Y108.761 E0.28173
G1 X147.047 Y108.761 E0.01675
G1 X141.239 Y102.953 E0.25804
G1 X141.239 Y103.486 E0.01675
G1 X146.514 Y108.761 E0.23434
G1 X145.981 Y108.761 E0.01675
G1 X141.239 Y104.019 E0.21065
G1 X141.239 Y104.553 E0.01675
G1 X145.447 Y108.761 E0.18696
G1 X144.914 Y108.761 E0.01675
G1 X141.239 Y105.086 E0.16327
G1 X141.239 Y105.619 E0.01675
G1 X144.381 Y108.761 E0.13957
G1 X143.848 Y108.761 E0.01675
G1 X141.239 Y106.152 E0.11588
G1 X141.239 Y106.686 E0.01675
G1 X143.314 Y108.761 E0.09219
G1 X142.781 Y108.761 E0.01675
G1 X141.239 Y107.219 E0.06849
G1 X141.239 Y107.752 E0.01675
G1 X142.248 Y108.761 E0.0448
G1 X141.715 Y108.761 E0.01675
G1 X141.077 Y108.123 E0.02831
; INIT stop printing object xyzCalibration_cube.stl id:0 copy 0
;LAYER_CHANGE
;Z:0.4
;HEIGHT:0.2
; stop printing object xyzCalibration_cube.stl id:0 copy 0
G1 Z0.4 F21000
; INIT printing object xyzCalibration_cube.stl id:0 copy 0
; printing object xyzCalibration_cube.stl id:0 copy 0
G1 X141.039 Y108.961
;TYPE:Internal perimeter
;WIDTH:0.45
G1 F3600
G1 X141.039 Y91.039 E0.60663
G1 X158.961 Y91.039 E0.60663
G1 X158.961 Y108.961 E0.60663
G1 X141.099 Y108.961 E0.6046
G1 X140.632 Y109.368 F21000
G1 F3600
G1 X140.632 Y90.632 E0.63419
G1 X159.368 Y90.632 E0.63419
G1 X159.368 Y109.368 E0.63419
G1 X140.692 Y109.368 E0.63216
G1 X140.225 Y109.775 F21000
;TYPE:External perimeter
G1 F3600
G1 X140.225 Y90.225 E0.66174
G1 X159.775 Y90.225 E0.66174
G1 X159.775 Y109.775 E0.66174
G1 X140.285 Y109.775 E0.65971
;WIPE_START
G1 X140.425 Y109.429 F21000
;WIPE_END
G1 X140.611 Y104.968
G1 X141.161 Y91.727
;TYPE:Solid infill
;WIDTH:0.450022
G1 F2400
G1 X141.552 Y91.336 E0.01871
G1 X142.128 Y91.336 E0.01949
G1 X141.336 Y92.128 E0.03789
G1 X141.336 Y92.704 E0.01949
G1 X142.704 Y91.336 E0.06545
G1 X143.279 Y91.336 E0.01949
G1 X141.336 Y93.279 E0.09301
G1 X141.336 Y93.855 E0.01949
G1 X143.855 Y91.336 E0.12057
G1 X144.431 Y91.336 E0.01949
G1 X141.336 Y94.431 E0.14813
G1 X141.336 Y95.006 E0.01949
G1 X145.006 Y91.336 E0.17569
G1 X145.582 Y91.336 E0.01949
G1 X141.336 Y95.582 E0.20325
G1 X141.336 Y96.158 E0.01949
G1 X146.158 Y91.336 E0.23081
G1 X146.733 Y91.336 E0.01949
G1 X141.336 Y96.733 E0.25837
G1 X141.336 Y97.309 E0.01949
G1 X147.309 Y91.336 E0.28593
G1 X147.885 Y91.336 E0.01949
G1 X141.336 Y97.885 E0.31349
G1 X141.336 Y98.46 E0.01949
G1 X148.46 Y91.336 E0.34105
G1 X149.036 Y91.336 E0.01949
G1 X141.336 Y99.036 E0.36861
G1 X141.336 Y99.612 E0.01949
G1 X149.612 Y91.336 E0.39617
G1 X150.188 Y91.336 E0.01949
G1 X141.336 Y100.188 E0.42373
G1 X141.336 Y100.763 E0.01949
G1 X150.763 Y91.336 E0.45129
G1 X151.339 Y91.336 E0.01949
G1 X141.336 Y101.339 E0.47885
G1 X141.336 Y101.915 E0.01949
G1 X151.915 Y91.336 E0.5064
G1 X152.49 Y91.336 E0.01949
G1 X141.336 Y102.49 E0.53396
G1 X141.336 Y103.066 E0.01949
G1 X153.066 Y91.336 E0.56152
G1 X153.642 Y91.336 E0.01949
G1 X141.336 Y103.642 E0.58908
G1 X141.336 Y104.217 E0.01949
G1 X154.217 Y91.336 E0.61664
G1 X154.793 Y91.336 E0.01949
G1 X141.336 Y104.793 E0.6442
G1 X141.336 Y105.369 E0.01949
G1 X155.369 Y91.336 E0.67176
G1 X155.945 Y91.336 E0.01949
G1 X141.336 Y105.945 E0.69932
G1 X141.336 Y106.52 E0.01949
G1 X156.52 Y91.336 E0.72688
G1 X157.096 Y91.336 E0.01949
G1 X141.336 Y107.096 E0.75444
G1 X141.336 Y107.672 E0.01949
G1 X157.672 Y91.336 E0.782
G1 X158.247 Y91.336 E0.01949
G1 X141.336 Y108.247 E0.80956
G1 X141.336 Y108.664 E0.01409
G1 X141.496 Y108.664 E0.00539
G1 X158.664 Y91.496 E0.82186
G1 X158.664 Y92.071 E0.01949
G1 X142.071 Y108.664 E0.7943
G1 X142.647 Y108.664 E0.01949
G1 X158.664 Y92.647 E0.76674
G1 X158.664 Y93.223 E0.01949
G1 X143.223 Y108.664 E0.73918
G1 X143.798 Y108.664 E0.01949
G1 X158.664 Y93.798 E0.71163
G1 X158.664 Y94.374 E0.01949
G1 X144.374 Y108.664 E0.68407
G1 X144.95 Y108.664 E0.01949
G1 X158.664 Y94.95 E0.65651
G1 X158.664 Y95.526 E0.01949
G1 X145.526 Y108.664 E0.62895
G1 X146.101 Y108.664 E0.01949
G1 X158.664 Y96.101 E0.60139
G1 X158.664 Y96.677 E0.01949
G1 X146.677 Y108.664 E0.57383
G1 X147.253 Y108.664 E0.01949
G1 X158.664 Y97.253 E0.54627
G1 X158.664 Y97.828 E0.01949
G1 X147.828 Y108.664 E0.51871
G1 X148.404 Y108.664 E0.01949
G1 X158.664 Y98.404 E0.49115
G1 X158.664 Y98.98 E0.01949
G1 X148.98 Y108.664 E0.46359
G1 X149.555 Y108.664 E0.01949
G1 X158.664 Y99.555 E0.43603
G1 X158.664 Y100.131 E0.01949
G1 X150.131 Y108.664 E0.40847
G1 X150.707 Y108.664 E0.01949
G1 X158.664 Y100.707 E0.38091
G1 X158.664 Y101.283 E0.01949
G1 X151.283 Y108.664 E0.35335
G1 X151.858 Y108.664 E0.01949
G1 X158.664 Y101.858 E0.32579
G1 X158.664 Y102.434 E0.01949
G1 X152.434 Y108.664 E0.29823
G1 X153.01 Y108.664 E0.01949
G1 X158.664 Y103.01 E0.27067
G1 X158.664 Y103.585 E0.01949
M106 S178.5
G1 X153.585 Y108.664 E0.24311
G1 X154.161 Y108.664 E0.01949
G1 X158.664 Y104.161 E0.21555
G1 X158.664 Y104.737 E0.01949
G1 X154.737 Y108.664 E0.18799
G1 X155.312 Y108.664 E0.01949
G1 X158.664 Y105.312 E0.16043
G1 X158.664 Y105.888 E0.01949
G1 X155.888 Y108.664 E0.13287
G1 X156.464 Y108.664 E0.01949
G1 X158.664 Y106.464 E0.10531
G1 X158.664 Y107.039 E0.01949
G1 X157.039 Y108.664 E0.07775
G1 X157.615 Y108.664 E0.01949
G1 X158.664 Y107.615 E0.05019
G1 X158.664 Y108.191 E0.01949
G1 X158.016 Y108.839 E0.03101
; INIT stop printing object xyzCalibration_cube.stl id:0 copy 0
;LAYER_CHANGE
;Z:0.6
;HEIGHT:0.2
; stop printing object xyzCalibration_cube.stl id:0 copy 0
G1 Z0.6 F21000
; INIT printing object xyzCalibration_cube.stl id:0 copy 0
; printing object xyzCalibration_cube.stl id:0 copy 0
G1 X158.961 Y108.961
;TYPE:Internal perimeter
;WIDTH:0.45
G1 F3600
G1 X141.039 Y108.961 E0.60663
G1 X141.039 Y91.039 E0.60663
G1 X158.961 Y91.039 E0.60663
G1 X158.961 Y108.901 E0.6046
G1 X159.368 Y109.368 F21000
G1 F3600
G1 X140.632 Y109.368 E0.63419
G1 X140.632 Y90.632 E0.63419
G1 X159.368 Y90.632 E0.63419
G1 X159.368 Y109.308 E0.63216
G1 X159.775 Y109.775 F21000
;TYPE:External perimeter
G1 F3600
G1 X140.225 Y109.775 E0.66174
G1 X140.225 Y90.225 E0.66174
G1 X159.775 Y90.225 E0.66174
G1 X159.775 Y109.715 E0.65971
;WIPE_START
G1 X159.429 Y109.575 F21000
;WIPE_END
G1 X154.968 Y109.389
G1 X141.727 Y108.839
;TYPE:Solid infill
;WIDTH:0.450022
G1 F2400
G1 X141.336 Y108.448 E0.01871
G1 X141.336 Y107.872 E0.01949
G1 X142.128 Y108.664 E0.03789
G1 X142.704 Y108.664 E0.01949
G1 X141.336 Y107.296 E0.06545
G1 X141.336 Y106.721 E0.01949
G1 X143.279 Y108.664 E0.09301
G1 X143.855 Y108.664 E0.01949
G1 X141.336 Y106.145 E0.12057
G1 X141.336 Y105.569 E0.01949
G1 X144.431 Y108.664 E0.14813
G1 X145.006 Y108.664 E0.01949
G1 X141.336 Y104.994 E0.17569
G1 X141.336 Y104.418 E0.01949
G1 X145.582 Y108.664 E0.20325
G1 X146.158 Y108.664 E0.01949
G1 X141.336 Y103.842 E0.23081
G1 X141.336 Y103.267 E0.01949
G1 X146.733 Y108.664 E0.25837
G1 X147.309 Y108.664 E0.01949
G1 X141.336 Y102.691 E0.28593
G1 X141.336 Y102.115 E0.01949
G1 X147.885 Y108.664 E0.31349
G1 X148.46 Y108.664 E0.01949
G1 X141.336 Y101.54 E0.34105
G1 X141.336 Y100.964 E0.01949
G1 X149.036 Y108.664 E0.36861
G1 X149.612 Y108.664 E0.01949
G1 X141.336 Y100.388 E0.39617
G1 X141.336 Y99.812 E0.01949
G1 X150.188 Y108.664 E0.42373
G1 X150.763 Y108.664 E0.01949
G1 X141.336 Y99.237 E0.45129
G1 X141.336 Y98.661 E0.01949
G1 X151.339 Y108.664 E0.47885
G1 X151.915 Y108.664 E0.01949
G1 X141.336 Y98.085 E0.5064
G1 X141.336 Y97.51 E0.01949
G1 X152.49 Y108.664 E0.53396
G1 X153.066 Y108.664 E0.01949
G1 X141.336 Y96.934 E0.56152
G1 X141.336 Y96.358 E0.01949
