; generated by SuperSlicer 2.3.57 on 2022-03-18 at 18:22:49 UTC

; 

; external perimeters extrusion width = 0.50mm
; perimeters extrusion width = 0.50mm
; infill extrusion width = 0.50mm
; solid infill extrusion width = 0.50mm
; top infill extrusion width = 0.50mm
; first layer extrusion width = 0.50mm

; object:{"name":"xyzCalibration_cube","id":"xyzCalibration_cube.stl id:0 copy 0","object_center":[150.000000,100.000000,0.000000],"boundingbox_center":[150.000000,100.000000,10.000000],"boundingbox_size":[20.000000,20.000000,20.000000]}
; plater:{"center":[150.000000,100.000000,0.000000],"boundingbox_center":[150.000000,100.000000,10.000000],"boundingbox_size":[20.000000,20.000000,20.000000]}

M140 S60 ; set bed temperature
;TYPE:Custom
; custom gcode: start_gcode
G29 S1
T1 ;manually get the tool
; custom gcode end: start_gcode
G21 ; set units to millimeters
G90 ; use absolute coordinates
M83 ; use relative distances for extrusion
; custom gcode: start_filament_gcode
; Filament gcode
; custom gcode end: start_filament_gcode
M109 S210 ; set temperature and wait for it to be reached
M190 S60 ; set bed temperature and wait for it to be reached
;LAYER_CHANGE
;Z:0.2
;HEIGHT:0.2
G1 Z0.2 F21000
G1 E-0.8 F6000
M204 P3500
G1 Z0.8 F21000
G1 X137.553 Y87.893
G1 Z0.2
G1 E0.8 F6000
;TYPE:Skirt
;WIDTH:0.5
G1 F1800
G1 X136.995 Y88.821 E0.04114
G1 X136.774 Y89.885 E0.04131
G1 X136.772 Y110.046 E0.76627
G1 X136.854 Y110.724 E0.02593
G1 X137.074 Y111.365 E0.02577
G1 X137.426 Y111.949 E0.02593
G1 X137.893 Y112.447 E0.02593
G1 X138.821 Y113.005 E0.04114
G1 X139.885 Y113.226 E0.04131
G1 X160.046 Y113.228 E0.76627
G1 X160.724 Y113.146 E0.02593
G1 X161.365 Y112.926 E0.02577
G1 X161.949 Y112.574 E0.02593
G1 X162.447 Y112.107 E0.02593
G1 X163.007 Y111.175 E0.04131
G1 X163.227 Y110.111 E0.04131
G1 X163.214 Y89.692 E0.77604
G1 X163.103 Y89.109 E0.02258
G1 X162.887 Y88.555 E0.02258
G1 X162.574 Y88.051 E0.02258
G1 X162.173 Y87.612 E0.02258
G1 X161.699 Y87.255 E0.02258
G1 X161.167 Y86.99 E0.02258
G1 X160.596 Y86.827 E0.02258
G1 X160.004 Y86.771 E0.02258
G1 X139.838 Y86.776 E0.76644
G1 X139.194 Y86.874 E0.02476
G1 X138.583 Y87.099 E0.02476
G1 X138.03 Y87.442 E0.02476
G1 X137.597 Y87.852 E0.02265
; INIT printing object xyzCalibration_cube.stl id:0 copy 0
;WIPE_START
G1 F16800
G1 X136.995 Y88.821 E-0.38691
G1 X136.774 Y89.885 E-0.36874
G1 X136.774 Y89.897 E-0.00435
;WIPE_END
G1 E-0.04 F6000
G1 Z0.8 F21000
; printing object xyzCalibration_cube.stl id:0 copy 0
G1 X141.164 Y91.164
G1 Z0.2
G1 E0.8 F6000
;TYPE:Internal perimeter
G1 F1800
G1 X158.836 Y91.164 E0.67164
G1 X158.836 Y108.836 E0.67164
G1 X141.164 Y108.836 E0.67164
G1 X141.164 Y91.224 E0.66936
G1 X140.707 Y90.707 F21000
G1 F1800
G1 X159.293 Y90.707 E0.70638
G1 X159.293 Y109.293 E0.70638
G1 X140.707 Y109.293 E0.70638
G1 X140.707 Y90.767 E0.7041
G1 X140.25 Y90.25 F21000
;TYPE:External perimeter
G1 F1800
G1 X159.75 Y90.25 E0.74112
G1 X159.75 Y109.75 E0.74112
G1 X140.25 Y109.75 E0.74112
G1 X140.25 Y90.31 E0.73884
;WIPE_START
G1 X140.596 Y90.45 F21000
;WIPE_END
G1 X142.205 Y108.699
;TYPE:Solid infill
;WIDTH:0.498847
G1 F2400
G1 X141.498 Y107.991 E0.03795
G1 X141.498 Y107.345 E0.02451
G1 X142.655 Y108.502 E0.06207
G1 X143.302 Y108.502 E0.02451
G1 X141.498 Y106.698 E0.09674
G1 X141.498 Y106.052 E0.02451
G1 X143.948 Y108.502 E0.1314
G1 X144.595 Y108.502 E0.02451
G1 X141.498 Y105.405 E0.16606
G1 X141.498 Y104.759 E0.02451
G1 X145.241 Y108.502 E0.20073
G1 X145.887 Y108.502 E0.02451
G1 X141.498 Y104.113 E0.23539
G1 X141.498 Y103.466 E0.02451
G1 X146.534 Y108.502 E0.27005
G1 X147.18 Y108.502 E0.02451
G1 X141.498 Y102.82 E0.30472
G1 X141.498 Y102.173 E0.02451
G1 X147.827 Y108.502 E0.33938
G1 X148.473 Y108.502 E0.02451
G1 X141.498 Y101.527 E0.37405
G1 X141.498 Y100.881 E0.02451
G1 X149.119 Y108.502 E0.40871
G1 X149.766 Y108.502 E0.02451
G1 X141.498 Y100.234 E0.44337
G1 X141.498 Y99.588 E0.02451
G1 X150.412 Y108.502 E0.47804
G1 X151.059 Y108.502 E0.02451
G1 X141.498 Y98.941 E0.5127
G1 X141.498 Y98.295 E0.02451
G1 X151.705 Y108.502 E0.54736
G1 X152.351 Y108.502 E0.02451
G1 X141.498 Y97.649 E0.58203
G1 X141.498 Y97.002 E0.02451
G1 X152.998 Y108.502 E0.61669
G1 X153.644 Y108.502 E0.02451
G1 X141.498 Y96.356 E0.65136
G1 X141.498 Y95.709 E0.02451
G1 X154.291 Y108.502 E0.68602
G1 X154.937 Y108.502 E0.02451
G1 X141.498 Y95.063 E0.72068
G1 X141.498 Y94.417 E0.02451
G1 X155.583 Y108.502 E0.75535
G1 X156.23 Y108.502 E0.02451
G1 X141.498 Y93.77 E0.79001
G1 X141.498 Y93.124 E0.02451
G1 X156.876 Y108.502 E0.82467
G1 X157.523 Y108.502 E0.02451
G1 X141.498 Y92.477 E0.85934
G1 X141.498 Y91.831 E0.02451
G1 X158.169 Y108.502 E0.894
G1 X158.502 Y108.502 E0.01263
G1 X158.502 Y108.189 E0.01188
G1 X141.811 Y91.498 E0.89506
G1 X142.458 Y91.498 E0.02451
G1 X158.502 Y107.542 E0.8604
G1 X158.502 Y106.896 E0.02451
G1 X143.104 Y91.498 E0.82573
G1 X143.75 Y91.498 E0.02451
G1 X158.502 Y106.25 E0.79107
G1 X158.502 Y105.603 E0.02451
G1 X144.397 Y91.498 E0.75641
G1 X145.043 Y91.498 E0.02451
G1 X158.502 Y104.957 E0.72174
G1 X158.502 Y104.31 E0.02451
G1 X145.69 Y91.498 E0.68708
G1 X146.336 Y91.498 E0.02451
G1 X158.502 Y103.664 E0.65242
G1 X158.502 Y103.018 E0.02451
G1 X146.982 Y91.498 E0.61775
G1 X147.629 Y91.498 E0.02451
G1 X158.502 Y102.371 E0.58309
G1 X158.502 Y101.725 E0.02451
G1 X148.275 Y91.498 E0.54842
G1 X148.922 Y91.498 E0.02451
G1 X158.502 Y101.078 E0.51376
G1 X158.502 Y100.432 E0.02451
G1 X149.568 Y91.498 E0.4791
G1 X150.214 Y91.498 E0.02451
G1 X158.502 Y99.786 E0.44443
G1 X158.502 Y99.139 E0.02451
G1 X150.861 Y91.498 E0.40977
G1 X151.507 Y91.498 E0.02451
G1 X158.502 Y98.493 E0.37511
G1 X158.502 Y97.846 E0.02451
G1 X152.154 Y91.498 E0.34044
G1 X152.8 Y91.498 E0.02451
G1 X158.502 Y97.2 E0.30578
G1 X158.502 Y96.554 E0.02451
G1 X153.446 Y91.498 E0.27111
G1 X154.093 Y91.498 E0.02451
G1 X158.502 Y95.907 E0.23645
G1 X158.502 Y95.261 E0.02451
G1 X154.739 Y91.498 E0.20179
G1 X155.386 Y91.498 E0.02451
G1 X158.502 Y94.614 E0.16712
G1 X158.502 Y93.968 E0.02451
G1 X156.032 Y91.498 E0.13246
G1 X156.678 Y91.498 E0.02451
G1 X158.502 Y93.322 E0.0978
G1 X158.502 Y92.675 E0.02451
G1 X157.325 Y91.498 E0.06313
G1 X157.971 Y91.498 E0.02451
G1 X158.699 Y92.225 E0.03901
; INIT stop printing object xyzCalibration_cube.stl id:0 copy 0
;LAYER_CHANGE
;Z:0.4
;HEIGHT:0.2
; stop printing object xyzCalibration_cube.stl id:0 copy 0
G1 Z0.4 F21000
; INIT printing object xyzCalibration_cube.stl id:0 copy 0
; printing object xyzCalibration_cube.stl id:0 copy 0
G1 X158.836 Y91.164
;TYPE:Internal perimeter
;WIDTH:0.5
G1 F3600
G1 X158.836 Y108.836 E0.67164
G1 X141.164 Y108.836 E0.67164
G1 X141.164 Y91.164 E0.67164
G1 X158.776 Y91.164 E0.66936
G1 X159.293 Y90.707 F21000
G1 F3600
G1 X159.293 Y109.293 E0.70638
G1 X140.707 Y109.293 E0.70638
G1 X140.707 Y90.707 E0.70638
G1 X159.233 Y90.707 E0.7041
G1 X159.75 Y90.25 F21000
;TYPE:External perimeter
G1 F3600
G1 X159.75 Y109.75 E0.74112
G1 X140.25 Y109.75 E0.74112
G1 X140.25 Y90.25 E0.74112
G1 X159.69 Y90.25 E0.73884
;WIPE_START
G1 X159.55 Y90.596 F21000
;WIPE_END
G1 X158.539 Y90.686
G1 X141.301 Y92.205
;TYPE:Solid infill
;WIDTH:0.498848
G1 F2400
G1 X142.009 Y91.498 E0.03795
G1 X142.655 Y91.498 E0.02451
G1 X141.498 Y92.655 E0.06207
G1 X141.498 Y93.302 E0.02451
G1 X143.302 Y91.498 E0.09673
G1 X143.948 Y91.498 E0.02451
G1 X141.498 Y93.948 E0.1314
G1 X141.498 Y94.595 E0.02451
G1 X144.595 Y91.498 E0.16606
G1 X145.241 Y91.498 E0.02451
G1 X141.498 Y95.241 E0.20073
G1 X141.498 Y95.887 E0.02451
G1 X145.887 Y91.498 E0.23539
G1 X146.534 Y91.498 E0.02451
G1 X141.498 Y96.534 E0.27005
G1 X141.498 Y97.18 E0.02451
G1 X147.18 Y91.498 E0.30472
G1 X147.827 Y91.498 E0.02451
G1 X141.498 Y97.827 E0.33938
G1 X141.498 Y98.473 E0.02451
G1 X148.473 Y91.498 E0.37404
G1 X149.119 Y91.498 E0.02451
G1 X141.498 Y99.119 E0.40871
G1 X141.498 Y99.766 E0.02451
G1 X149.766 Y91.498 E0.44337
G1 X150.412 Y91.498 E0.02451
G1 X141.498 Y100.412 E0.47804
G1 X141.498 Y101.059 E0.02451
G1 X151.059 Y91.498 E0.5127
G1 X151.705 Y91.498 E0.02451
G1 X141.498 Y101.705 E0.54736
G1 X141.498 Y102.351 E0.02451
G1 X152.351 Y91.498 E0.58203
G1 X152.998 Y91.498 E0.02451
G1 X141.498 Y102.998 E0.61669
G1 X141.498 Y103.644 E0.02451
G1 X153.644 Y91.498 E0.65135
G1 X154.291 Y91.498 E0.02451
G1 X141.498 Y104.291 E0.68602
G1 X141.498 Y104.937 E0.02451
G1 X154.937 Y91.498 E0.72068
G1 X155.583 Y91.498 E0.02451
G1 X141.498 Y105.583 E0.75535
G1 X141.498 Y106.23 E0.02451
G1 X156.23 Y91.498 E0.79001
G1 X156.876 Y91.498 E0.02451
G1 X141.498 Y106.876 E0.82467
G1 X141.498 Y107.523 E0.02451
G1 X157.523 Y91.498 E0.85934
G1 X158.169 Y91.498 E0.02451
G1 X141.498 Y108.169 E0.894
G1 X141.498 Y108.502 E0.01263
G1 X141.811 Y108.502 E0.01188
G1 X158.502 Y91.811 E0.89506
G1 X158.502 Y92.458 E0.02451
G1 X142.458 Y108.502 E0.8604
G1 X143.104 Y108.502 E0.02451
G1 X158.502 Y93.104 E0.82574
G1 X158.502 Y93.75 E0.02451
G1 X143.75 Y108.502 E0.79107
G1 X144.397 Y108.502 E0.02451
G1 X158.502 Y94.397 E0.75641
G1 X158.502 Y95.043 E0.02451
G1 X145.043 Y108.502 E0.72174
G1 X145.69 Y108.502 E0.02451
G1 X158.502 Y95.69 E0.68708
G1 X158.502 Y96.336 E0.02451
G1 X146.336 Y108.502 E0.65242
G1 X146.982 Y108.502 E0.02451
G1 X158.502 Y96.982 E0.61775
G1 X158.502 Y97.629 E0.02451
G1 X147.629 Y108.502 E0.58309
G1 X148.275 Y108.502 E0.02451
G1 X158.502 Y98.275 E0.54843
G1 X158.502 Y98.922 E0.02451
G1 X148.922 Y108.502 E0.51376
G1 X149.568 Y108.502 E0.02451
G1 X158.502 Y99.568 E0.4791
G1 X158.502 Y100.214 E0.02451
G1 X150.214 Y108.502 E0.44443
G1 X150.861 Y108.502 E0.02451
G1 X158.502 Y100.861 E0.40977
G1 X158.502 Y101.507 E0.02451
G1 X151.507 Y108.502 E0.37511
G1 X152.154 Y108.502 E0.02451
G1 X158.502 Y102.154 E0.34044
G1 X158.502 Y102.8 E0.02451
G1 X154.885 Y106.417 E0.19395
M106 S178.5
G1 X152.8 Y108.502 E0.11183
G1 X153.446 Y108.502 E0.02451
G1 X158.502 Y103.446 E0.27112
G1 X158.502 Y104.093 E0.02451
G1 X154.093 Y108.502 E0.23645
G1 X154.739 Y108.502 E0.02451
G1 X158.502 Y104.739 E0.20179
G1 X158.502 Y105.386 E0.02451
G1 X155.386 Y108.502 E0.16712
G1 X156.032 Y108.502 E0.02451
G1 X158.502 Y106.032 E0.13246
G1 X158.502 Y106.678 E0.02451
G1 X156.678 Y108.502 E0.0978
G1 X157.325 Y108.502 E0.02451
G1 X158.502 Y107.325 E0.06313
G1 X158.502 Y107.971 E0.02451
G1 X157.775 Y108.699 E0.03901
; INIT stop printing object xyzCalibration_cube.stl id:0 copy 0
;LAYER_CHANGE
;Z:0.6
;HEIGHT:0.2
; stop printing object xyzCalibration_cube.stl id:0 copy 0
G1 Z0.6 F21000
; INIT printing object xyzCalibration_cube.stl id:0 copy 0
; printing object xyzCalibration_cube.stl id:0 copy 0
G1 X158.836 Y108.836
;TYPE:Internal perimeter
;WIDTH:0.5
G1 F3600
G1 X141.164 Y108.836 E0.67164
G1 X141.164 Y91.164 E0.67164
G1 X158.836 Y91.164 E0.67164
G1 X158.836 Y108.776 E0.66936
G1 X159.293 Y109.293 F21000
G1 F3600
G1 X140.707 Y109.293 E0.70638
G1 X140.707 Y90.707 E0.70638
G1 X159.293 Y90.707 E0.70638
G1 X159.293 Y109.233 E0.7041
G1 X159.75 Y109.75 F21000
;TYPE:External perimeter
G1 F3600
G1 X140.25 Y109.75 E0.74112
G1 X140.25 Y90.25 E0.74112
G1 X159.75 Y90.25 E0.74112
G1 X159.75 Y109.69 E0.73884
;WIPE_START
G1 X159.404 Y109.55 F21000
;WIPE_END
G1 X159.314 Y107.36
G1 X158.699 Y92.225
;TYPE:Solid infill
;WIDTH:0.498848
G1 F2400
G1 X157.971 Y91.498 E0.03901
G1 X157.325 Y91.498 E0.02451
G1 X158.502 Y92.675 E0.06313
G1 X158.502 Y93.322 E0.02451
G1 X156.678 Y91.498 E0.0978
G1 X156.032 Y91.498 E0.02451
G1 X158.502 Y93.968 E0.13246
G1 X158.502 Y94.614 E0.02451
G1 X155.386 Y91.498 E0.16712
G1 X154.739 Y91.498 E0.02451
G1 X158.502 Y95.261 E0.20179
G1 X158.502 Y95.907 E0.02451
G1 X154.093 Y91.498 E0.23645
G1 X153.446 Y91.498 E0.02451
G1 X158.502 Y96.554 E0.27112
G1 X158.502 Y97.2 E0.02451
G1 X152.8 Y91.498 E0.30578
G1 X152.154 Y91.498 E0.02451
G1 X158.502 Y97.846 E0.34044
G1 X158.502 Y98.493 E0.02451
G1 X151.507 Y91.498 E0.37511
G1 X150.861 Y91.498 E0.02451
G1 X158.502 Y99.139 E0.40977
G1 X158.502 Y99.786 E0.02451
G1 X150.214 Y91.498 E0.44443
G1 X149.568 Y91.498 E0.02451
G1 X158.502 Y100.432 E0.4791
G1 X158.502 Y101.078 E0.02451
G1 X148.922 Y91.498 E0.51376
G1 X148.275 Y91.498 E0.02451
G1 X158.502 Y101.725 E0.54843
G1 X158.502 Y102.371 E0.02451
G1 X147.629 Y91.498 E0.58309
G1 X146.982 Y91.498 E0.02451
G1 X158.502 Y103.018 E0.61775
G1 X158.502 Y103.664 E0.02451
G1 X146.336 Y91.498 E0.65242
G1 X145.69 Y91.498 E0.02451
G1 X158.502 Y104.31 E0.68708
G1 X158.502 Y104.957 E0.02451
G1 X145.043 Y91.498 E0.72174
G1 X144.397 Y91.498 E0.02451
G1 X158.502 Y105.603 E0.75641
G1 X158.502 Y106.25 E0.02451
G1 X143.75 Y91.498 E0.79107
G1 X143.104 Y91.498 E0.02451
G1 X158.502 Y106.896 E0.82574
G1 X158.502 Y107.542 E0.02451
G1 X142.458 Y91.498 E0.8604
G1 X141.811 Y91.498 E0.02451
G1 X158.502 Y108.189 E0.89506
G1 X158.502 Y108.502 E0.01188
G1 X158.169 Y108.502 E0.01263
G1 X141.498 Y91.831 E0.894
G1 X141.498 Y92.477 E0.02451
G1 X157.523 Y108.502 E0.85934
G1 X156.876 Y108.502 E0.02451
G1 X141.498 Y93.124 E0.82467
G1 X141.498 Y93.77 E0.02451
G1 X156.23 Y108.502 E0.79001
G1 X155.583 Y108.502 E0.02451
G1 X141.498 Y94.417 E0.75535
G1 X141.498 Y95.063 E0.02451
G1 X154.937 Y108.502 E0.72068
G1 X154.291 Y108.502 E0.02451
G1 X141.498 Y95.709 E0.68602
G1 X141.498 Y96.356 E0.02451
G1 X153.644 Y108.502 E0.65135
G1 X152.998 Y108.502 E0.02451
G1 X141.498 Y97.002 E0.61669
G1 X141.498 Y97.649 E0.02451
G1 X152.351 Y108.502 E0.58203
G1 X151.705 Y108.502 E0.02451
G1 X141.498 Y98.295 E0.54736
G1 X141.498 Y98.941 E0.02451
G1 X151.059 Y108.502 E0.5127
G1 X150.412 Y108.502 E0.02451
G1 X141.498 Y99.588 E0.47804
G1 X141.498 Y100.234 E0.02451
G1 X149.766 Y108.502 E0.44337
G1 X149.119 Y108.502 E0.02451
G1 X141.498 Y100.881 E0.40871
G1 X141.498 Y101.527 E0.02451
G1 X148.473 Y108.502 E0.37404
G1 X147.827 Y108.502 E0.02451
G1 X141.498 Y102.173 E0.33938
G1 X141.498 Y102.82 E0.02451
G1 X147.18 Y108.502 E0.30472
G1 X146.534 Y108.502 E0.02451
G1 X141.498 Y103.466 E0.27005
G1 X141.498 Y104.113 E0.02451
G1 X145.887 Y108.502 E0.23539
G1 X145.241 Y108.502 E0.02451
G1 X141.498 Y104.759 E0.20073
G1 X141.498 Y105.405 E0.02451
G1 X144.595 Y108.502 E0.16606
G1 X143.948 Y108.502 E0.02451
G1 X141.498 Y106.052 E0.1314
G1 X141.498 Y106.698 E0.02451
G1 X143.302 Y108.502 E0.09673
G1 X142.655 Y108.502 E0.02451
G1 X141.498 Y107.345 E0.06207
G1 X141.498 Y107.991 E0.02451
G1 X142.205 Y108.699 E0.03795
; INIT stop printing object xyzCalibration_cube.stl id:0 copy 0
;LAYER_CHANGE
;Z:0.8
;HEIGHT:0.2
; stop printing object xyzCalibration_cube.stl id:0 copy 0
G1 Z0.8 F21000
; INIT printing object xyzCalibration_cube.stl id:0 copy 0
; printing object xyzCalibration_cube.stl id:0 copy 0
G1 X141.164 Y108.836
;TYPE:Internal perimeter
;WIDTH:0.5
G1 F3600
G1 X141.164 Y91.164 E0.67164
G1 X158.836 Y91.164 E0.67164
G1 X158.836 Y108.836 E0.67164
G1 X141.224 Y108.836 E0.66936
G1 X140.707 Y109.293 F21000
G1 F3600
G1 X140.707 Y90.707 E0.70638
G1 X159.293 Y90.707 E0.70638
G1 X159.293 Y109.293 E0.70638
G1 X140.767 Y109.293 E0.7041
G1 X140.25 Y109.75 F21000
;TYPE:External perimeter
G1 F3600
G1 X140.25 Y90.25 E0.74112
G1 X159.75 Y90.25 E0.74112
G1 X159.75 Y109.75 E0.74112
G1 X140.31 Y109.75 E0.73884
;WIPE_START
G1 X140.45 Y109.404 F21000
;WIPE_END
G1 X142.64 Y109.314
G1 X157.775 Y108.699
;TYPE:Solid infill
;WIDTH:0.498848
G1 F2400
G1 X158.502 Y107.971 E0.03901
G1 X158.502 Y107.325 E0.02451
G1 X157.325 Y108.502 E0.06313
G1 X156.678 Y108.502 E0.02451
G1 X158.502 Y106.678 E0.0978
G1 X158.502 Y106.032 E0.02451
G1 X156.032 Y108.502 E0.13246
G1 X155.386 Y108.502 E0.02451
G1 X158.502 Y105.386 E0.16712
G1 X158.502 Y104.739 E0.02451
G1 X154.739 Y108.502 E0.20179
G1 X154.093 Y108.502 E0.02451
G1 X158.502 Y104.093 E0.23645
G1 X158.502 Y103.446 E0.02451
G1 X153.446 Y108.502 E0.27112
G1 X152.8 Y108.502 E0.02451
G1 X158.502 Y102.8 E0.30578
G1 X158.502 Y102.154 E0.02451
G1 X152.154 Y108.502 E0.34044
G1 X151.507 Y108.502 E0.02451
G1 X158.502 Y101.507 E0.37511
G1 X158.502 Y100.861 E0.02451
G1 X150.861 Y108.502 E0.40977
G1 X150.214 Y108.502 E0.02451
G1 X158.502 Y100.214 E0.44443
G1 X158.502 Y99.568 E0.02451
G1 X149.568 Y108.502 E0.4791
G1 X148.922 Y108.502 E0.02451
G1 X158.502 Y98.922 E0.51376
G1 X158.502 Y98.275 E0.02451
G1 X148.275 Y108.502 E0.54843
