; generated by SuperSlicer 2.3.57 on 2022-03-18 at 20:51:00 UTC

; 

; external perimeters extrusion width = 0.45mm
; perimeters extrusion width = 0.45mm
; infill extrusion width = 0.45mm
; solid infill extrusion width = 0.45mm
; top infill extrusion width = 0.45mm
; first layer extrusion width = 0.42mm

; object:{"name":"xyzCalibration_cube","id":"xyzCalibration_cube.stl id:0 copy 0","object_center":[150.000000,100.000000,0.000000],"boundingbox_center":[150.000000,100.000000,10.000000],"boundingbox_size":[20.000000,20.000000,20.000000]}
; Total objects to print: 1
M486 T1
; plater:{"center":[150.000000,100.000000,0.000000],"boundingbox_center":[150.000000,100.000000,10.000000],"boundingbox_size":[20.000000,20.000000,20.000000]}

M140 S60 ; set bed temperature
;TYPE:Custom
; custom gcode: start_gcode
G29 S1
T1 ;manually get the tool
; custom gcode end: start_gcode
G21 ; set units to millimeters
G90 ; use absolute coordinates
M83 ; use relative distances for extrusion
; custom gcode: start_filament_gcode
; Filament gcode
; custom gcode end: start_filament_gcode
M109 S210 ; set temperature and wait for it to be reached
M190 S60 ; set bed temperature and wait for it to be reached
;LAYER_CHANGE
;Z:0.3
;HEIGHT:0.3
G1 Z0.3 F21000
G1 E-0.8 F6000
M204 P3500
G1 Z0.9 F21000
G1 X134.432 Y86.488
G1 Z0.3
G1 E0.8 F6000
;TYPE:Skirt
;WIDTH:0.42
G1 F900
G1 X134.202 Y86.847 E0.01891
G1 X133.8 Y87.737 E0.04331
G1 X133.534 Y88.676 E0.04331
G1 X133.409 Y89.645 E0.04331
G1 X133.406 Y110.295 E0.91593
G1 X133.63 Y111.728 E0.06434
G1 X134.161 Y113.078 E0.06434
G1 X134.975 Y114.279 E0.06434
G1 X136.031 Y115.273 E0.06434
G1 X136.847 Y115.798 E0.04303
G1 X137.737 Y116.2 E0.04331
G1 X138.676 Y116.466 E0.04331
G1 X139.645 Y116.591 E0.04331
G1 X160.295 Y116.594 E0.91593
G1 X161.728 Y116.37 E0.06434
G1 X163.078 Y115.839 E0.06434
G1 X164.279 Y115.025 E0.06434
G1 X165.273 Y113.969 E0.06434
G1 X165.804 Y113.142 E0.0436
G1 X166.207 Y112.246 E0.0436
G1 X166.471 Y111.299 E0.0436
G1 X166.592 Y110.324 E0.0436
G1 X166.6 Y89.972 E0.90271
G1 X166.504 Y88.879 E0.04865
G1 X166.212 Y87.77 E0.05089
G1 X165.729 Y86.722 E0.05117
G1 X165.07 Y85.775 E0.05117
G1 X164.257 Y84.956 E0.05117
G1 X163.314 Y84.292 E0.05117
G1 X162.269 Y83.802 E0.05117
G1 X161.156 Y83.502 E0.05117
G1 X160.006 Y83.4 E0.05117
G1 X139.319 Y83.435 E0.91758
G1 X137.992 Y83.713 E0.06014
G1 X136.755 Y84.252 E0.05986
G1 X135.649 Y85.037 E0.06014
G1 X134.727 Y86.031 E0.06014
G1 X134.465 Y86.438 E0.02146
G1 X134.763 Y86.631 F21000
G1 F900
G1 X134.526 Y86.994 E0.0192
G1 X134.138 Y87.847 E0.04158
G1 X133.882 Y88.749 E0.04158
G1 X133.764 Y89.673 E0.04131
G1 X133.76 Y110.252 E0.91279
G1 X133.967 Y111.611 E0.06094
G1 X134.462 Y112.885 E0.06067
G1 X135.223 Y114.022 E0.06067
G1 X136.213 Y114.966 E0.06067
G1 X136.994 Y115.474 E0.04131
G1 X137.847 Y115.862 E0.04158
G1 X138.749 Y116.118 E0.04158
G1 X139.673 Y116.236 E0.04131
G1 X160.252 Y116.24 E0.91279
G1 X161.611 Y116.033 E0.06094
G1 X162.885 Y115.538 E0.06067
G1 X164.022 Y114.777 E0.06067
G1 X164.966 Y113.787 E0.06067
G1 X165.476 Y113.001 E0.04158
G1 X165.866 Y112.141 E0.04186
G1 X166.122 Y111.233 E0.04186
G1 X166.237 Y110.302 E0.04158
G1 X166.245 Y89.976 E0.90156
G1 X166.161 Y88.981 E0.04431
G1 X165.887 Y87.918 E0.04868
G1 X165.432 Y86.919 E0.04868
G1 X164.813 Y86.021 E0.04841
G1 X164.042 Y85.24 E0.04868
G1 X163.146 Y84.606 E0.04868
G1 X162.159 Y84.14 E0.04841
G1 X161.099 Y83.853 E0.04868
G1 X160.006 Y83.755 E0.04868
G1 X139.391 Y83.785 E0.9144
G1 X138.134 Y84.04 E0.05686
G1 X136.957 Y84.547 E0.05686
G1 X135.912 Y85.279 E0.05658
G1 X135.034 Y86.213 E0.05686
G1 X134.795 Y86.581 E0.01945
G1 X135.092 Y86.776 F21000
G1 F900
G1 X134.849 Y87.146 E0.01963
G1 X134.477 Y87.957 E0.03958
G1 X134.231 Y88.815 E0.03958
G1 X134.119 Y89.7 E0.03958
G1 X134.115 Y110.221 E0.91021
G1 X134.304 Y111.494 E0.05706
G1 X134.764 Y112.695 E0.05706
G1 X135.474 Y113.768 E0.05706
G1 X136.4 Y114.661 E0.05706
G1 X137.146 Y115.151 E0.03958
G1 X137.957 Y115.523 E0.03958
G1 X138.815 Y115.769 E0.03958
G1 X139.7 Y115.881 E0.03958
G1 X160.221 Y115.885 E0.91021
G1 X161.494 Y115.696 E0.05706
G1 X162.695 Y115.236 E0.05706
G1 X163.768 Y114.526 E0.05706
G1 X164.661 Y113.6 E0.05706
G1 X165.154 Y112.849 E0.03985
G1 X165.527 Y112.032 E0.03985
G1 X165.772 Y111.167 E0.03985
G1 X165.883 Y110.276 E0.03985
G1 X165.889 Y89.982 E0.90011
G1 X165.817 Y89.081 E0.04011
G1 X165.566 Y88.076 E0.04594
G1 X165.14 Y87.125 E0.04621
G1 X164.553 Y86.264 E0.04621
G1 X163.828 Y85.525 E0.04594
G1 X162.979 Y84.92 E0.04621
G1 X162.043 Y84.477 E0.04594
G1 X161.044 Y84.204 E0.04594
G1 X160.006 Y84.111 E0.04621
G1 X139.455 Y84.136 E0.91151
G1 X138.275 Y84.369 E0.05336
G1 X137.162 Y84.84 E0.05362
G1 X136.173 Y85.524 E0.05336
G1 X135.339 Y86.4 E0.05362
G1 X135.125 Y86.726 E0.01729
G1 X135.421 Y86.923 F21000
G1 F900
G1 X135.172 Y87.297 E0.01991
G1 X134.816 Y88.066 E0.0376
G1 X134.58 Y88.886 E0.03785
G1 X134.473 Y89.727 E0.0376
G1 X134.47 Y110.19 E0.90762
G1 X134.641 Y111.378 E0.05325
G1 X135.067 Y112.507 E0.05351
G1 X135.724 Y113.512 E0.05325
G1 X136.586 Y114.355 E0.05351
G1 X137.297 Y114.828 E0.03785
G1 X138.066 Y115.184 E0.0376
G1 X138.886 Y115.42 E0.03785
G1 X139.727 Y115.527 E0.0376
G1 X160.19 Y115.53 E0.90762
G1 X161.378 Y115.359 E0.05325
G1 X162.507 Y114.933 E0.05351
G1 X163.512 Y114.276 E0.05325
G1 X164.355 Y113.414 E0.05351
G1 X164.831 Y112.698 E0.03811
G1 X165.188 Y111.923 E0.03785
G1 X165.422 Y111.103 E0.03785
G1 X165.528 Y110.256 E0.03785
G1 X165.533 Y89.985 E0.89911
G1 X165.472 Y89.18 E0.0358
G1 X165.242 Y88.227 E0.04351
G1 X164.843 Y87.324 E0.04376
G1 X164.295 Y86.511 E0.04351
G1 X163.611 Y85.807 E0.04351
G1 X162.814 Y85.236 E0.04351
G1 X161.929 Y84.814 E0.04351
G1 X160.983 Y84.555 E0.04351
G1 X160.006 Y84.467 E0.04351
G1 X139.52 Y84.487 E0.90863
G1 X138.409 Y84.7 E0.05018
G1 X137.365 Y85.134 E0.05018
G1 X136.43 Y85.772 E0.05018
G1 X135.645 Y86.586 E0.05018
G1 X135.454 Y86.873 E0.01528
G1 X135.748 Y87.072 F21000
G1 F900
G1 X135.498 Y87.442 E0.01979
G1 X135.155 Y88.174 E0.03587
G1 X134.93 Y88.95 E0.03587
G1 X134.828 Y89.753 E0.03587
G1 X134.825 Y110.156 E0.90499
G1 X134.98 Y111.267 E0.04977
G1 X135.371 Y112.319 E0.04977
G1 X135.979 Y113.262 E0.04977
G1 X136.776 Y114.052 E0.04977
G1 X137.442 Y114.502 E0.03562
G1 X138.174 Y114.845 E0.03587
G1 X138.95 Y115.07 E0.03587
G1 X139.753 Y115.172 E0.03587
G1 X160.156 Y115.175 E0.90499
G1 X161.267 Y115.02 E0.04977
G1 X162.319 Y114.629 E0.04977
G1 X163.262 Y114.021 E0.04977
G1 X164.052 Y113.224 E0.04977
G1 X164.507 Y112.549 E0.03612
G1 X164.849 Y111.816 E0.03587
G1 X165.073 Y111.039 E0.03587
G1 X165.173 Y110.23 E0.03612
G1 X165.178 Y89.99 E0.89776
G1 X165.126 Y89.273 E0.03189
G1 X164.915 Y88.371 E0.04109
G1 X164.549 Y87.526 E0.04084
G1 X164.035 Y86.755 E0.04109
G1 X163.397 Y86.092 E0.04084
G1 X162.646 Y85.549 E0.04109
G1 X161.816 Y85.151 E0.04084
G1 X160.923 Y84.905 E0.04109
G1 X160.006 Y84.822 E0.04084
G1 X139.58 Y84.839 E0.90597
G1 X138.543 Y85.032 E0.0468
G1 X137.566 Y85.43 E0.0468
G1 X136.686 Y86.022 E0.04704
G1 X135.948 Y86.776 E0.0468
G1 X135.782 Y87.022 E0.01317
; INIT printing object xyzCalibration_cube.stl id:0 copy 0
;WIPE_START
G1 F16800
G1 X135.498 Y87.442 E-0.17174
G1 X135.155 Y88.174 E-0.27438
G1 X134.93 Y88.95 E-0.27438
G1 X134.915 Y89.066 E-0.0395
;WIPE_END
G1 E-0.04 F6000
G1 Z0.9 F21000
; printing object xyzCalibration_cube.stl id:0 copy 0
M486 S0
G1 X140.921 Y90.921
G1 Z0.3
G1 E0.8 F6000
;TYPE:Internal perimeter
G1 F900
G1 X159.079 Y90.921 E0.80537
G1 X159.079 Y109.079 E0.80537
G1 X140.921 Y109.079 E0.80537
G1 X140.921 Y90.981 E0.80271
G1 X140.566 Y90.566 F21000
G1 F900
G1 X159.434 Y90.566 E0.83692
G1 X159.434 Y109.434 E0.83692
G1 X140.566 Y109.434 E0.83692
G1 X140.566 Y90.626 E0.83426
G1 X140.21 Y90.21 F21000
;TYPE:External perimeter
G1 F900
G1 X159.79 Y90.21 E0.86847
G1 X159.79 Y109.79 E0.86847
G1 X140.21 Y109.79 E0.86847
G1 X140.21 Y90.27 E0.86581
;WIPE_START
G1 X140.556 Y90.41 F21000
;WIPE_END
G1 X141.496 Y108.972
;TYPE:Solid infill
;WIDTH:0.421224
G1 F2400
G1 X141.181 Y108.657 E0.01982
G1 X141.181 Y108.154 E0.02237
G1 X141.846 Y108.819 E0.04184
G1 X142.349 Y108.819 E0.02237
G1 X141.181 Y107.651 E0.07348
G1 X141.181 Y107.148 E0.02237
G1 X142.852 Y108.819 E0.10511
G1 X143.355 Y108.819 E0.02237
G1 X141.181 Y106.645 E0.13675
G1 X141.181 Y106.142 E0.02237
G1 X143.858 Y108.819 E0.16839
G1 X144.36 Y108.819 E0.02237
G1 X141.181 Y105.64 E0.20003
G1 X141.181 Y105.137 E0.02237
G1 X144.863 Y108.819 E0.23167
G1 X145.366 Y108.819 E0.02237
G1 X141.181 Y104.634 E0.26331
G1 X141.181 Y104.131 E0.02237
G1 X145.869 Y108.819 E0.29495
G1 X146.372 Y108.819 E0.02237
G1 X141.181 Y103.628 E0.32659
G1 X141.181 Y103.125 E0.02237
G1 X146.875 Y108.819 E0.35822
G1 X147.378 Y108.819 E0.02237
G1 X141.181 Y102.622 E0.38986
G1 X141.181 Y102.119 E0.02237
G1 X147.881 Y108.819 E0.4215
G1 X148.384 Y108.819 E0.02237
G1 X141.181 Y101.616 E0.45314
G1 X141.181 Y101.113 E0.02237
G1 X148.887 Y108.819 E0.48478
G1 X149.39 Y108.819 E0.02237
G1 X141.181 Y100.61 E0.51642
G1 X141.181 Y100.107 E0.02237
G1 X149.893 Y108.819 E0.54806
G1 X150.396 Y108.819 E0.02237
G1 X141.181 Y99.604 E0.5797
G1 X141.181 Y99.102 E0.02237
G1 X150.898 Y108.819 E0.61133
G1 X151.401 Y108.819 E0.02237
G1 X141.181 Y98.599 E0.64297
G1 X141.181 Y98.096 E0.02237
G1 X151.904 Y108.819 E0.67461
G1 X152.407 Y108.819 E0.02237
G1 X141.181 Y97.593 E0.70625
G1 X141.181 Y97.09 E0.02237
G1 X152.91 Y108.819 E0.73789
G1 X153.413 Y108.819 E0.02237
G1 X141.181 Y96.587 E0.76953
G1 X141.181 Y96.084 E0.02237
G1 X153.916 Y108.819 E0.80117
G1 X154.419 Y108.819 E0.02237
G1 X141.181 Y95.581 E0.83281
G1 X141.181 Y95.078 E0.02237
G1 X154.922 Y108.819 E0.86445
G1 X155.425 Y108.819 E0.02237
G1 X141.181 Y94.575 E0.89608
G1 X141.181 Y94.072 E0.02237
G1 X155.928 Y108.819 E0.92772
G1 X156.431 Y108.819 E0.02237
G1 X141.181 Y93.569 E0.95936
G1 X141.181 Y93.067 E0.02237
G1 X156.933 Y108.819 E0.991
G1 X157.436 Y108.819 E0.02237
G1 X141.181 Y92.564 E1.02264
G1 X141.181 Y92.061 E0.02237
G1 X157.939 Y108.819 E1.05428
G1 X158.442 Y108.819 E0.02237
G1 X141.181 Y91.558 E1.08592
G1 X141.181 Y91.181 E0.01677
G1 X141.307 Y91.181 E0.0056
G1 X158.819 Y108.693 E1.1017
G1 X158.819 Y108.19 E0.02237
G1 X141.81 Y91.181 E1.07007
G1 X142.313 Y91.181 E0.02237
G1 X158.819 Y107.687 E1.03843
G1 X158.819 Y107.184 E0.02237
G1 X142.816 Y91.181 E1.00679
G1 X143.318 Y91.181 E0.02237
G1 X158.819 Y106.682 E0.97515
G1 X158.819 Y106.179 E0.02237
G1 X143.821 Y91.181 E0.94351
G1 X144.324 Y91.181 E0.02237
G1 X158.819 Y105.676 E0.91187
G1 X158.819 Y105.173 E0.02237
G1 X144.827 Y91.181 E0.88023
G1 X145.33 Y91.181 E0.02237
G1 X158.819 Y104.67 E0.84859
G1 X158.819 Y104.167 E0.02237
G1 X145.833 Y91.181 E0.81696
G1 X146.336 Y91.181 E0.02237
G1 X158.819 Y103.664 E0.78532
G1 X158.819 Y103.161 E0.02237
G1 X146.839 Y91.181 E0.75368
G1 X147.342 Y91.181 E0.02237
G1 X158.819 Y102.658 E0.72204
G1 X158.819 Y102.155 E0.02237
G1 X147.845 Y91.181 E0.6904
G1 X148.348 Y91.181 E0.02237
G1 X158.819 Y101.652 E0.65876
G1 X158.819 Y101.149 E0.02237
G1 X148.851 Y91.181 E0.62712
G1 X149.354 Y91.181 E0.02237
G1 X158.819 Y100.646 E0.59548
G1 X158.819 Y100.144 E0.02237
G1 X149.856 Y91.181 E0.56384
G1 X150.359 Y91.181 E0.02237
G1 X158.819 Y99.641 E0.53221
G1 X158.819 Y99.138 E0.02237
G1 X150.862 Y91.181 E0.50057
G1 X151.365 Y91.181 E0.02237
G1 X158.819 Y98.635 E0.46893
G1 X158.819 Y98.132 E0.02237
G1 X151.868 Y91.181 E0.43729
G1 X152.371 Y91.181 E0.02237
G1 X158.819 Y97.629 E0.40565
G1 X158.819 Y97.126 E0.02237
G1 X152.874 Y91.181 E0.37401
G1 X153.377 Y91.181 E0.02237
G1 X158.819 Y96.623 E0.34237
G1 X158.819 Y96.12 E0.02237
G1 X153.88 Y91.181 E0.31073
G1 X154.383 Y91.181 E0.02237
G1 X158.819 Y95.617 E0.2791
G1 X158.819 Y95.114 E0.02237
G1 X154.886 Y91.181 E0.24746
G1 X155.389 Y91.181 E0.02237
G1 X158.819 Y94.611 E0.21582
G1 X158.819 Y94.108 E0.02237
G1 X155.892 Y91.181 E0.18418
G1 X156.394 Y91.181 E0.02237
G1 X158.819 Y93.606 E0.15254
G1 X158.819 Y93.103 E0.02237
G1 X156.897 Y91.181 E0.1209
G1 X157.4 Y91.181 E0.02237
G1 X158.819 Y92.6 E0.08926
G1 X158.819 Y92.097 E0.02237
G1 X157.903 Y91.181 E0.05762
G1 X158.406 Y91.181 E0.02237
G1 X158.972 Y91.747 E0.03561
; INIT stop printing object xyzCalibration_cube.stl id:0 copy 0
;LAYER_CHANGE
;Z:0.5
;HEIGHT:0.2
; stop printing object xyzCalibration_cube.stl id:0 copy 0
M486 S-1
G1 Z0.5 F21000
; INIT printing object xyzCalibration_cube.stl id:0 copy 0
; printing object xyzCalibration_cube.stl id:0 copy 0
M486 S0
G1 X158.961 Y91.039
;TYPE:Internal perimeter
;WIDTH:0.45
G1 F3600
G1 X158.961 Y108.961 E0.60663
G1 X141.039 Y108.961 E0.60663
G1 X141.039 Y91.039 E0.60663
G1 X158.901 Y91.039 E0.6046
G1 X159.368 Y90.632 F21000
G1 F3600
G1 X159.368 Y109.368 E0.63419
G1 X140.632 Y109.368 E0.63419
G1 X140.632 Y90.632 E0.63419
G1 X159.308 Y90.632 E0.63216
G1 X159.775 Y90.225 F21000
;TYPE:External perimeter
G1 F3600
G1 X159.775 Y109.775 E0.66174
G1 X140.225 Y109.775 E0.66174
G1 X140.225 Y90.225 E0.66174
G1 X159.715 Y90.225 E0.65971
;WIPE_START
G1 X159.575 Y90.571 F21000
;WIPE_END
G1 X158.952 Y90.611
G1 X141.161 Y91.727
;TYPE:Solid infill
;WIDTH:0.450022
G1 F2400
G1 X141.552 Y91.336 E0.01871
G1 X142.128 Y91.336 E0.01949
G1 X141.336 Y92.128 E0.03789
G1 X141.336 Y92.704 E0.01949
G1 X142.704 Y91.336 E0.06545
G1 X143.279 Y91.336 E0.01949
G1 X141.336 Y93.279 E0.09301
G1 X141.336 Y93.855 E0.01949
G1 X143.855 Y91.336 E0.12057
G1 X144.431 Y91.336 E0.01949
G1 X141.336 Y94.431 E0.14813
G1 X141.336 Y95.006 E0.01949
G1 X145.006 Y91.336 E0.17569
G1 X145.582 Y91.336 E0.01949
G1 X141.336 Y95.582 E0.20325
G1 X141.336 Y96.158 E0.01949
G1 X146.158 Y91.336 E0.23081
G1 X146.733 Y91.336 E0.01949
G1 X141.336 Y96.733 E0.25837
G1 X141.336 Y97.309 E0.01949
G1 X147.309 Y91.336 E0.28593
G1 X147.885 Y91.336 E0.01949
G1 X141.336 Y97.885 E0.31349
G1 X141.336 Y98.46 E0.01949
G1 X148.46 Y91.336 E0.34105
G1 X149.036 Y91.336 E0.01949
G1 X141.336 Y99.036 E0.36861
G1 X141.336 Y99.612 E0.01949
G1 X149.612 Y91.336 E0.39617
G1 X150.188 Y91.336 E0.01949
G1 X141.336 Y100.188 E0.42373
G1 X141.336 Y100.763 E0.01949
G1 X150.763 Y91.336 E0.45129
G1 X151.339 Y91.336 E0.01949
G1 X141.336 Y101.339 E0.47885
G1 X141.336 Y101.915 E0.01949
G1 X151.915 Y91.336 E0.5064
G1 X152.49 Y91.336 E0.01949
G1 X141.336 Y102.49 E0.53396
G1 X141.336 Y103.066 E0.01949
G1 X153.066 Y91.336 E0.56152
G1 X153.642 Y91.336 E0.01949
G1 X141.336 Y103.642 E0.58908
G1 X141.336 Y104.217 E0.01949
G1 X154.217 Y91.336 E0.61664
G1 X154.793 Y91.336 E0.01949
G1 X141.336 Y104.793 E0.6442
G1 X141.336 Y105.369 E0.01949
G1 X155.369 Y91.336 E0.67176
G1 X155.945 Y91.336 E0.01949
G1 X141.336 Y105.945 E0.69932
G1 X141.336 Y106.52 E0.01949
G1 X156.52 Y91.336 E0.72688
G1 X157.096 Y91.336 E0.01949
G1 X141.336 Y107.096 E0.75444
G1 X141.336 Y107.672 E0.01949
G1 X157.672 Y91.336 E0.782
G1 X158.247 Y91.336 E0.01949
G1 X141.336 Y108.247 E0.80956
G1 X141.336 Y108.664 E0.01409
G1 X141.496 Y108.664 E0.00539
G1 X158.664 Y91.496 E0.82186
G1 X158.664 Y92.071 E0.01949
G1 X142.071 Y108.664 E0.7943
G1 X142.647 Y108.664 E0.01949
G1 X158.664 Y92.647 E0.76674
G1 X158.664 Y93.223 E0.01949
G1 X143.223 Y108.664 E0.73918
G1 X143.798 Y108.664 E0.01949
G1 X158.664 Y93.798 E0.71163
G1 X158.664 Y94.374 E0.01949
G1 X144.374 Y108.664 E0.68407
G1 X144.95 Y108.664 E0.01949
G1 X158.664 Y94.95 E0.65651
G1 X158.664 Y95.526 E0.01949
G1 X145.526 Y108.664 E0.62895
G1 X146.101 Y108.664 E0.01949
G1 X158.664 Y96.101 E0.60139
G1 X158.664 Y96.677 E0.01949
G1 X146.677 Y108.664 E0.57383
G1 X147.253 Y108.664 E0.01949
G1 X158.664 Y97.253 E0.54627
G1 X158.664 Y97.828 E0.01949
G1 X147.828 Y108.664 E0.51871
G1 X148.404 Y108.664 E0.01949
G1 X158.664 Y98.404 E0.49115
G1 X158.664 Y98.98 E0.01949
G1 X148.98 Y108.664 E0.46359
G1 X149.555 Y108.664 E0.01949
G1 X158.664 Y99.555 E0.43603
G1 X158.664 Y100.131 E0.01949
G1 X150.131 Y108.664 E0.40847
G1 X150.707 Y108.664 E0.01949
G1 X158.664 Y100.707 E0.38091
G1 X158.664 Y101.283 E0.01949
G1 X151.283 Y108.664 E0.35335
G1 X151.858 Y108.664 E0.01949
G1 X158.664 Y101.858 E0.32579
G1 X158.664 Y102.434 E0.01949
G1 X152.434 Y108.664 E0.29823
G1 X153.01 Y108.664 E0.01949
